!!!!SEGMENT: pl-wumfc--n2100--011_dobrzynski-ignacy-feliks--monbar-czyli-flibustierowie-partytura-fortepianowa-akt-ii-10-terzetto.krn
!!!cenid: 18xx:4194
!!!COM: Dobrzyński, Ignacy Feliks
!!!COM-rismID: pe30020642
!!!CDT: 1807/02/15-1867/10/09
!!!CNT: Polish
!!!OPR: Monbar czyli Flibustierowie - partytura fortepianowa
!!!OTL: Akt II - 10. Terzetto
!!!OMV: 011
!!!PDT: 1863
!!!AGN:
!!!SMS-siglum: PL-Wumfc
!!!SMS-shelfmark: N2100
!!!SMS-shelfwork: 001-011 M
!!!SMS-variant:
!!!SMS-altvar:
!!!NIFC-rismSourceID: 1001123412
!!!NIFC-rismChildID: 1001123412
!!!NIFC-islandoraID: pl-wumfc:1659
!!!URL-pdf-islandora: https://repozytorium.nifc.pl/islandora/object/pl-wumfc%3A1659/datastream/PDF/view
!!!URL-scan: https://polish.musicsources.pl/pl/lokalizacje/galeria/druki-muzyczne/11863/90 @EN{Scan on Polish Music Sources Website} @PL{Skany w portalu Dziedzictwo Muzyki Polskiej w otwartym dostępie}
!!!IIIF:
!!!ONB-nifc: Skany 0090-0094
!!!AIN: 1 bass 1 mezzo 2 piano 1 soprn
!!!key: C
**kern	**kern	**dynam	**kern	**text	**dynam	**kern	**text	**dynam	**kern	**text	**dynam
*part5	*part4	*part4	*part3	*part3	*part3	*part2	*part2	*part2	*part1	*part1	*part1
*staff5	*staff4	*	*staff3	*staff3	*	*staff2	*staff2	*	*staff1	*staff1	*
*	*I"PIANO.	*	*I"D.ALONZO	*	*	*I"ROZALIA.	*	*	*I"D. MARJA.	*	*
*	*I'P-no	*	*I'B.	*	*	*I'C.	*	*	*I'c.	*	*
*Ipiano	*Ipiano	*	*Ibass	*	*	*Imezzo	*	*	*Isoprn	*	*
*ICklav	*ICklav	*	*ICvox	*	*	*ICvox	*	*	*ICvox	*	*
*clefF4	*clefG2	*	*clefF4	*	*	*clefG2	*	*	*clefG2	*	*
*k[]	*k[]	*	*k[]	*	*	*k[]	*	*	*k[]	*	*
*C:	*C:	*	*C:	*	*	*C:	*	*	*C:	*	*
*M4/4	*M4/4	*	*M4/4	*	*	*M4/4	*	*	*M4/4	*	*
*met(c)	*met(c)	*	*met(c)	*	*	*met(c)	*	*	*met(c)	*	*
=1	=1	=1	=1	=1	=1	=1	=1	=1	=1	=1	=1
4AA/ 4C 4E	8A/	.	1r	.	.	1r	.	.	1r	.	.
.	4c/	.	.	.	.	.	.	.	.	.	.
4AA/ 4C 4E	.	.	.	.	.	.	.	.	.	.	.
!	!	!LO:HP:t=cres	!	!	!	!	!	!	!	!	!
.	4e/	<	.	.	.	.	.	.	.	.	.
4AA/ 4C 4E	.	.	.	.	.	.	.	.	.	.	.
.	4a/	.	.	.	.	.	.	.	.	.	.
4AA/ 4C 4E	.	.	.	.	.	.	.	.	.	.	.
.	8cc\	.	.	.	.	.	.	.	.	.	.
=2	=2	=2	=2	=2	=2	=2	=2	=2	=2	=2	=2
*tremolo	*	*above	*	*	*	*	*	*	*	*	*
8AA/L 8C 8E	16cc\LL	<	1r	.	.	1r	.	.	1r	.	.
.	16cc\	.	.	.	.	.	.	.	.	.	.
8AA/ 8C 8E	16cc\	.	.	.	.	.	.	.	.	.	.
.	16cc\JJ	.	.	.	.	.	.	.	.	.	.
8AA/ 8C 8E	16ee\LL	.	.	.	.	.	.	.	.	.	.
.	16ee\	.	.	.	.	.	.	.	.	.	.
8AA/J 8C 8E	16ee\	.	.	.	.	.	.	.	.	.	.
.	16ee\JJ	.	.	.	.	.	.	.	.	.	.
8AA/L 8C 8E	16aa\LL	.	.	.	.	.	.	.	.	.	.
.	16aa\	.	.	.	.	.	.	.	.	.	.
8AA/ 8C 8E	16aa\	.	.	.	.	.	.	.	.	.	.
.	16aa\JJ	.	.	.	.	.	.	.	.	.	.
8AA/ 8C 8E	8ccc\L	[	.	.	.	.	.	.	.	.	.
8AA/J 8C 8E	8eee\J	.	.	.	.	.	.	.	.	.	.
=3	=3	=3	=3	=3	=3	=3	=3	=3	=3	=3	=3
*	*	*below	*	*	*	*	*	*	*	*	*
8AAA/L 8AA	8aaa\L	f	1r	.	.	2.ee\	Pa-	.	1r	.	.
8AA/J 8C 8E 8A	(16A/L	p	.	.	.	.	.	.	.	.	.
.	16B/JJ	.	.	.	.	.	.	.	.	.	.
8AA/L 8C 8E	16c/LL	.	.	.	.	.	.	.	.	.	.
.	16B/	.	.	.	.	.	.	.	.	.	.
8AA/ 8C 8E	16c/	.	.	.	.	.	.	.	.	.	.
.	16A/JJ)	.	.	.	.	.	.	.	.	.	.
*	*tremolo	*	*	*	*	*	*	*	*	*	*
8AA/ 8C 8E	16a^/LL	.	.	.	.	.	.	.	.	.	.
.	16a/	.	.	.	.	.	.	.	.	.	.
8AA/ 8C 8E	16a/	.	.	.	.	.	.	.	.	.	.
.	16a/JJ	.	.	.	.	.	.	.	.	.	.
8AA/ 8C 8E	16a/LL	.	.	.	.	4dd\	-ni	.	.	.	.
.	16a/	.	.	.	.	.	.	.	.	.	.
8AA/J 8C 8E	16a/	.	.	.	.	.	.	.	.	.	.
.	16a/JJ	.	.	.	.	.	.	.	.	.	.
=4	=4	=4	=4	=4	=4	=4	=4	=4	=4	=4	=4
8AA/L 8C 8E	8r	.	1r	.	.	4cc\	je-	.	1r	.	.
!	!	!	!LO:LB:g=original	!	!	!	!	!	!LO:LB:g=original	!	!
8AA/ 8C 8E	(16a\LL	.	.	.	.	.	.	.	.	.	.
.	16b\JJ	.	.	.	.	.	.	.	.	.	.
8AA/ 8C 8E	16cc\LL	.	.	.	.	4b\	-ślić	.	.	.	.
.	16b\	.	.	.	.	.	.	.	.	.	.
8AA/J 8C 8E	16cc\	.	.	.	.	.	.	.	.	.	.
.	16a\JJ)	.	.	.	.	.	.	.	.	.	.
8AA/L 8C 8E	16aa^\LL	.	.	.	.	4a/	Żu-	.	.	.	.
.	16aa\	.	.	.	.	.	.	.	.	.	.
8AA/ 8C 8E	16aa\	.	.	.	.	.	.	.	.	.	.
.	16aa\JJ	.	.	.	.	.	.	.	.	.	.
8AA/ 8C 8E	16aa\LL	.	.	.	.	4e/	-an	.	.	.	.
!	!	!	!	!	!	!LO:LB:g=original	!	!	!	!	!
.	16aa\	.	.	.	.	.	.	.	.	.	.
8AA/J 8C 8E	16aa\	.	.	.	.	.	.	.	.	.	.
.	16aa\JJ	.	.	.	.	.	.	.	.	.	.
!LO:LB:g=original	!LO:LB:g=original	!	!	!	!	!	!	!	!	!	!
=5	=5	=5	=5	=5	=5	=5	=5	=5	=5	=5	=5
8AA/L 8D 8F	8r	.	1r	.	.	2g/	dro-	.	1r	.	.
8AA/ 8D 8F	16d/LL	<	.	.	.	.	.	.	.	.	.
.	16e/JJ	.	.	.	.	.	.	.	.	.	.
8AA/ 8D 8F	16f/LL	.	.	.	.	.	.	.	.	.	.
.	16e/	.	.	.	.	.	.	.	.	.	.
8AA/J 8D 8F	16f/	.	.	.	.	.	.	.	.	.	.
.	16d/JJ	.	.	.	.	.	.	.	.	.	.
8AA/L 8D 8F	16a/LL	.	.	.	.	4f/	-gi	.	.	.	.
.	16a/	.	.	.	.	.	.	.	.	.	.
8AA/ 8D 8F	16a/	.	.	.	.	.	.	.	.	.	.
.	16a/JJ	.	.	.	.	.	.	.	.	.	.
8AA/ 8D 8F	16a/LL	.	.	.	.	4r	.	.	.	.	.
.	16a/	.	.	.	.	.	.	.	.	.	.
8AA/J 8D 8F	16a/	.	.	.	.	.	.	.	.	.	.
.	16a/JJ	.	.	.	.	.	.	.	.	.	.
=6	=6	=6	=6	=6	=6	=6	=6	=6	=6	=6	=6
!	!	!	!	!	!	!	!	!LO:DY:a	!	!	!
8AA/L 8D 8F	8r	.	1r	.	.	8f/	w po-	<	1r	.	.
8AA/ 8D 8F	(16dd\LL	.	.	.	.	8f/	-moc	.	.	.	.
.	16ee\JJ	.	.	.	.	.	.	.	.	.	.
8AA/ 8D 8F	16ff\LL	.	.	.	.	8f/	je-	.	.	.	.
.	16ee\	.	.	.	.	.	.	.	.	.	.
8AA/J 8D 8F	16ff\	.	.	.	.	8f/	-mu	.	.	.	.
.	16dd\JJ)	.	.	.	.	.	.	.	.	.	.
!	!	!	!	!	!	!	!	!LO:DY:a	!	!	!
8AA/L 8D 8F	16aa\LL	.	.	.	.	4.dd\	ży-	[ >	.	.	.
.	16aa\	.	.	.	.	.	.	.	.	.	.
8AA/ 8D 8F	16aa\	.	.	.	.	.	.	.	.	.	.
.	16aa\JJ	.	.	.	.	.	.	.	.	.	.
8AA/ 8D 8F	16aa\LL	.	.	.	.	.	.	.	.	.	.
.	16aa\	.	.	.	.	.	.	.	.	.	.
8AA/J 8D 8F	16aa\	.	.	.	.	8cc\	-wo	]]	.	.	.
.	16aa\JJ	[[	.	.	.	.	.	.	.	.	.
=7	=7	=7	=7	=7	=7	=7	=7	=7	=7	=7	=7
8GG#X/L 8BB 8E	8r	.	1r	.	.	4b\	spiesz	.	1r	.	.
!	!	!	!LO:HP:t=cres	!	!	!	!	!	!	!	!
8GG#/ 8BB 8E	(16e/LL	<	.	.	.	.	.	.	.	.	.
.	16f#X/JJ	.	.	.	.	.	.	.	.	.	.
8GG#/ 8BB 8E	16g#X/LL	.	.	.	.	4r	.	.	.	.	.
.	16f#/	.	.	.	.	.	.	.	.	.	.
8GG#/J 8BB 8E	16g#/	.	.	.	.	.	.	.	.	.	.
.	16e/JJ)	.	.	.	.	.	.	.	.	.	.
8GG#/L 8BB 8E	16ee\LL	.	.	.	.	4.b\	Już	.	.	.	.
.	16ee\	.	.	.	.	.	.	.	.	.	.
8GG#/ 8BB 8E	16ee\	.	.	.	.	.	.	.	.	.	.
.	16ee\JJ	.	.	.	.	.	.	.	.	.	.
8GG#/ 8BB 8E	16ee\LL	.	.	.	.	.	.	.	.	.	.
.	16ee\	.	.	.	.	.	.	.	.	.	.
8GG#/J 8BB 8E	16ee\	.	.	.	.	8b\	się	.	.	.	.
.	16ee\JJ	.	.	.	.	.	.	.	.	.	.
=8	=8	=8	=8	=8	=8	=8	=8	=8	=8	=8	=8
8GG#X/L 8BB 8E	8r	.	1r	.	.	4b\	sro-	.	1r	.	.
!	!	!	!	!LO:LB:g=original	!	!	!	!	!	!LO:LB:g=original	!
8GG#/ 8BB 8E	16ee\LL	.	.	.	.	.	.	.	.	.	.
.	16ff#X\JJ	.	.	.	.	.	.	.	.	.	.
8GG#/ 8BB 8E	16gg#X\LL	.	.	.	.	4b\	-ży	.	.	.	.
.	16ff#\	.	.	.	.	.	.	.	.	.	.
8GG#/J 8BB 8E	16gg#\	.	.	.	.	.	.	.	.	.	.
.	16ee\JJ	.	.	.	.	.	.	.	.	.	.
8GG#/L 8BB 8E	16eee\LL	.	.	.	.	4.ee^\	tłum	.	.	.	.
.	16eee\	.	.	.	.	.	.	.	.	.	.
8GG#/ 8BB 8E	16eee\	.	.	.	.	.	.	.	.	.	.
.	16eee\JJ	.	.	.	.	.	.	.	.	.	.
8GG#/ 8BB 8E	16eee\LL	.	.	.	.	.	.	.	.	.	.
.	16eee\	.	.	.	.	.	.	.	.	.	.
8GG#/J 8BB 8E	16eee\	.	.	.	.	8b\	zło-	.	.	.	.
.	16eee\JJ	.	.	.	.	.	.	.	.	.	.
!LO:LB:g=original	!LO:LB:g=original	!	!	!	!	!	!LO:LB:g=original	!	!	!	!
=9	=9	=9	=9	=9	=9	=9	=9	=9	=9	=9	=9
4AA/ 4C 4E	4aa\	f	1r	.	.	4cc\	-wro-	.	2aa^\	Nie-	.
4AAA/ 4AA	4a\ 4cc 4ee 4aa	sf	.	.	.	4a/	-gi	.	.	.	.
8r	8r	.	.	.	.	2r	.	.	4a/	-ba!	.
16AA/LL	16A/LL	.	.	.	.	.	.	.	.	.	.
16BB/JJ	16B/JJ	.	.	.	.	.	.	.	.	.	.
16C/LL	16c/LL	.	.	.	.	.	.	.	4r	.	.
16BB/	16B/	.	.	.	.	.	.	.	.	.	.
16C/	16c/	.	.	.	.	.	.	.	.	.	.
16AA/JJ	16A/JJ	.	.	.	.	.	.	.	.	.	.
=10	=10	=10	=10	=10	=10	=10	=10	=10	=10	=10	=10
!	!	!	!LO:TX:a:t=do ROZALIJ	!	!	!	!	!	!	!	!
4GG/	4G/	f	4G\	Mów	.	1r	.	.	1r	.	.
4GGG/ 4GG	4g\ 4b 4dd 4gg	sf	4r	.	.	.	.	.	.	.	.
8r	8r	.	4G\	z kąd	.	.	.	.	.	.	.
16GG/LL	16G/LL	.	.	.	.	.	.	.	.	.	.
16AA/JJ	16A/JJ	.	.	.	.	.	.	.	.	.	.
16BB/LL	16B/LL	.	8F\	o	.	.	.	.	.	.	.
16AA/	16A/	.	.	.	.	.	.	.	.	.	.
16BB/	16B/	.	8D\	tem	.	.	.	.	.	.	.
16GG/JJ	16G/JJ	.	.	.	.	.	.	.	.	.	.
=11	=11	=11	=11	=11	=11	=11	=11	=11	=11	=11	=11
8C\L	8c/	.	4C/	wiesz?	.	2r	.	.	1r	.	.
8C\J 8E 8G	16c/LL	p	.	.	.	.	.	.	.	.	.
.	16d/JJ	.	.	.	.	.	.	.	.	.	.
8C\L 8E 8G	16e/LL	.	4r	.	.	.	.	.	.	.	.
.	16d/	.	.	.	.	.	.	.	.	.	.
8C\J 8E 8G	16e/	.	.	.	.	.	.	.	.	.	.
.	16c/JJ	.	.	.	.	.	.	.	.	.	.
8C\L 8E 8G	16cc^\LL	.	2r	.	.	4cc\	Tak,	.	.	.	.
.	16cc\	.	.	.	.	.	.	.	.	.	.
8C\ 8E 8G	16cc\	.	.	.	.	.	.	.	.	.	.
.	16cc\JJ	.	.	.	.	.	.	.	.	.	.
8C\ 8E 8G	16cc\LL	.	.	.	.	8r	.	.	.	.	.
.	16cc\	.	.	.	.	.	.	.	.	.	.
8C\J 8E 8G	16cc\	.	.	.	.	8cc\	wi-	.	.	.	.
.	16cc\JJ	.	.	.	.	.	.	.	.	.	.
=12	=12	=12	=12	=12	=12	=12	=12	=12	=12	=12	=12
8C\L 8E 8G	8r	.	1r	.	.	4.cc\	-dzia-	.	1r	.	.
!	!	!	!LO:LB:g=original	!	!	!	!	!	!LO:LB:g=original	!	!
8C\ 8E 8G	16cc\LL	.	.	.	.	.	.	.	.	.	.
.	16dd\JJ	.	.	.	.	.	.	.	.	.	.
8C\ 8E 8G	16ee\LL	.	.	.	.	.	.	.	.	.	.
.	16dd\	.	.	.	.	.	.	.	.	.	.
8C\ 8E 8G	16ee\	.	.	.	.	8g/	-łam	.	.	.	.
.	16cc\JJ	.	.	.	.	.	.	.	.	.	.
8C\ 8E 8G	16ccc^\LL	.	.	.	.	4g/	tłum	.	.	.	.
.	16ccc\	.	.	.	.	.	.	.	.	.	.
8C\J 8E 8G	16ccc\	.	.	.	.	.	.	.	.	.	.
.	16ccc\JJ	.	.	.	.	.	.	.	.	.	.
8C\L 8E 8G#X	16ccc\LL	.	.	.	.	4g#X/	gro-	.	.	.	.
!	!	!	!	!	!	!	!LO:LB:g=original	!	!	!	!
.	16ccc\	.	.	.	.	.	.	.	.	.	.
8C\J 8E 8G#	16ccc\	.	.	.	.	.	.	.	.	.	.
.	16ccc\JJ	.	.	.	.	.	.	.	.	.	.
!LO:LB:g=original	!LO:LB:g=original	!	!	!	!	!	!	!	!	!	!
=13	=13	=13	=13	=13	=13	=13	=13	=13	=13	=13	=13
8C\L 8F 8A	8r	.	1r	.	.	4b^\	-ma-	.	1r	.	.
!	!	!LO:P:t=cres---	!	!	!	!	!	!	!	!	!
8C\ 8F 8A	16f/LL	<	.	.	.	.	.	.	.	.	.
.	16g/JJ	.	.	.	.	.	.	.	.	.	.
8C\ 8F 8A	16a/LL	.	.	.	.	8a/	-dą	.	.	.	.
.	16g/	.	.	.	.	.	.	.	.	.	.
8C\J 8F 8A	16a/	.	.	.	.	8r	.	.	.	.	.
.	16f/JJ	.	.	.	.	.	.	.	.	.	.
8C\L 8F 8A	16cc\LL	.	.	.	.	4.a/	ku	.	.	.	.
.	16cc\	.	.	.	.	.	.	.	.	.	.
8C\ 8F 8A	16cc\	.	.	.	.	.	.	.	.	.	.
.	16cc\JJ	.	.	.	.	.	.	.	.	.	.
8C\ 8F 8A	16cc\LL	.	.	.	.	.	.	.	.	.	.
.	16cc\	.	.	.	.	.	.	.	.	.	.
8C\J 8F 8A	16cc\	.	.	.	.	8a/	wię-	.	.	.	.
.	16cc\JJ	.	.	.	.	.	.	.	.	.	.
=14	=14	=14	=14	=14	=14	=14	=14	=14	=14	=14	=14
8C\L 8F 8A	8r	.	1r	.	.	4.a/	-zie-	.	1r	.	.
8C\ 8F 8A	16ff\LL	.	.	.	.	.	.	.	.	.	.
.	16gg\JJ	.	.	.	.	.	.	.	.	.	.
8C\ 8F 8A	16aa\LL	.	.	.	.	.	.	.	.	.	.
.	16gg\	.	.	.	.	.	.	.	.	.	.
8C\J 8F 8A	16aa\	.	.	.	.	8a/	-niu	.	.	.	.
.	16ff\JJ	.	.	.	.	.	.	.	.	.	.
8C\L 8F 8A	16ccc\LL	.	.	.	.	(4a/	kro-	.	.	.	.
.	16ccc\	.	.	.	.	.	.	.	.	.	.
8C\ 8F 8A	16ccc\	.	.	.	.	.	.	.	.	.	.
.	16ccc\JJ	.	.	.	.	.	.	.	.	.	.
8C\ 8F 8A-X	16ccc\LL	.	.	.	.	4a-X/)	-czy	.	.	.	.
.	16ccc\	.	.	.	.	.	.	.	.	.	.
8C\J 8F 8A-	16ccc\	.	.	.	.	.	.	.	.	.	.
.	16ccc\JJ	.	.	.	.	.	.	.	.	.	.
=15	=15	=15	=15	=15	=15	=15	=15	=15	=15	=15	=15
8BB\L 8D 8F 8G	8r	.	1r	.	.	2g/	już	.	1r	.	.
8BB\ 8D 8F 8G	16g/LL	.	.	.	.	.	.	.	.	.	.
.	16a/JJ	.	.	.	.	.	.	.	.	.	.
8BB\ 8D 8F 8G	16b/LL	.	.	.	.	.	.	.	.	.	.
.	16a/	.	.	.	.	.	.	.	.	.	.
8BB\J 8D 8F 8G	16b/	.	.	.	.	.	.	.	.	.	.
.	16g/JJ	.	.	.	.	.	.	.	.	.	.
8BB\L 8D 8F 8G	16gg\LL	.	.	.	.	4.g/	Jak	.	.	.	.
.	16gg\	.	.	.	.	.	.	.	.	.	.
8BB\ 8D 8F 8G	16gg\	.	.	.	.	.	.	.	.	.	.
.	16gg\JJ	.	.	.	.	.	.	.	.	.	.
8BB\ 8D 8F 8G	16gg\LL	.	.	.	.	.	.	.	.	.	.
.	16gg\	.	.	.	.	.	.	.	.	.	.
8BB\J 8D 8F 8G	16gg\	.	.	.	.	8g/	krwio-	.	.	.	.
.	16gg\JJ	.	.	.	.	.	.	.	.	.	.
=16	=16	=16	=16	=16	=16	=16	=16	=16	=16	=16	=16
8BB\L 8D 8F 8G	8r	.	1r	.	.	4.dd^\	-żer-	.	1r	.	.
!	!	!	!	!	!	!	!	!	!	!LO:LB:g=original	!
8BB\ 8D 8F 8G	16gg\LL	.	.	.	.	.	.	.	.	.	.
.	16aa\JJ	.	.	.	.	.	.	.	.	.	.
8BB\ 8D 8F 8G	16bb\LL	.	.	.	.	.	.	.	.	.	.
.	16aa\	.	.	.	.	.	.	.	.	.	.
8BB\J 8D 8F 8G	16bb\	.	.	.	.	8dd\	-cze	.	.	.	.
.	16gg\JJ	.	.	.	.	.	.	.	.	.	.
*	*Xtremolo	*	*	*	*	*	*	*	*	*	*
8BB\L 8D 8F 8G	16ddd\LL	.	.	.	.	4dd^\	kru-	.	.	.	.
.	16ddd\	.	.	.	.	.	.	.	.	.	.
8BB\ 8D 8F 8G	16ddd\	.	.	.	.	.	.	.	.	.	.
.	16ddd\JJ	.	.	.	.	.	.	.	.	.	.
8BB\ 8D 8F 8G	16ddd\LL	.	.	.	.	4f/	-ków	.	.	.	.
!	!	!	!	!	!	!	!LO:LB:g=original	!	!	!	!
.	16ddd\	.	.	.	.	.	.	.	.	.	.
8BB\J 8D 8F 8G	16ddd\	.	.	.	.	.	.	.	.	.	.
.	16gg\JJ	.	.	.	.	.	.	.	.	.	.
!LO:LB:g=original	!LO:LB:g=original	!	!	!	!	!	!	!	!	!	!
=17	=17	=17	=17	=17	=17	=17	=17	=17	=17	=17	=17
!	!	!LO:HP:t=cen--	!	!	!	!	!	!	!	!	!
16C\LL 16E	4ccc\	<	1r	.	.	4f/	sta-	.	2r	.	.
16G\	.	.	.	.	.	.	.	.	.	.	.
16C\ 16E	.	.	.	.	.	.	.	.	.	.	.
16G\	.	.	.	.	.	.	.	.	.	.	.
16C\ 16E	4cc\	.	.	.	.	4e/	-do.	.	.	.	.
16G\	.	.	.	.	.	.	.	.	.	.	.
16C\ 16E	.	.	.	.	.	.	.	.	.	.	.
16G\JJ	.	.	.	.	.	.	.	.	.	.	.
16C\LL 16E	4r	.	.	.	.	2r	.	.	4.ee\	Coż	.
16c\	.	.	.	.	.	.	.	.	.	.	.
16C\ 16E	.	.	.	.	.	.	.	.	.	.	.
16c\	.	.	.	.	.	.	.	.	.	.	.
16C\ 16E	4cc\ 4ee 4ccc	.	.	.	.	.	.	.	.	.	.
16c\	.	.	.	.	.	.	.	.	.	.	.
16C\ 16E	.	.	.	.	.	.	.	.	8ee\	tu	.
16c\JJ	.	.	.	.	.	.	.	.	.	.	.
=18	=18	=18	=18	=18	=18	=18	=18	=18	=18	=18	=18
16D\LL 16F	4r	.	1r	.	.	1r	.	.	4.dd\	ra-	.
16B\	.	.	.	.	.	.	.	.	.	.	.
16D\ 16F	.	.	.	.	.	.	.	.	.	.	.
16B\	.	.	.	.	.	.	.	.	.	.	.
!	!	!LO:HP:t=do-	!	!	!	!	!	!	!	!	!
16D\ 16F	4b\ 4dd 4bb	<	.	.	.	.	.	.	.	.	.
16B\	.	.	.	.	.	.	.	.	.	.	.
16D\ 16F	.	.	.	.	.	.	.	.	8dd\	-dzić	.
16B\JJ	.	.	.	.	.	.	.	.	.	.	.
16D#X\LL 16F#X	4r	.	.	.	.	.	.	.	4.cc\	po-	.
16c\	.	.	.	.	.	.	.	.	.	.	.
16D#\ 16F#	.	.	.	.	.	.	.	.	.	.	.
16c\	.	.	.	.	.	.	.	.	.	.	.
16D#\ 16F#	4a\ 4cc 4aa	.	.	.	.	.	.	.	.	.	.
16c\	.	.	.	.	.	.	.	.	.	.	.
16D#\ 16F#	.	.	.	.	.	.	.	.	8cc\	-wiedz	.
16c\JJ	.	.	.	.	.	.	.	.	.	.	.
=19	=19	=19	=19	=19	=19	=19	=19	=19	=19	=19	=19
16E\LL 16G#X	8g#X\L 8b 8gg#X	f	1r	.	.	1r	.	.	4b\	cóż?	.
16B\	.	.	.	.	.	.	.	.	.	.	.
16E\ 16G#	(16ee\L	.	.	.	.	.	.	.	.	.	.
16B\	16ff#X\JJ	.	.	.	.	.	.	.	.	.	.
16E\ 16G#	16gg#\LL	.	.	.	.	.	.	.	4r	.	.
16B\	16ff#\	.	.	.	.	.	.	.	.	.	.
16E\ 16G#	16gg#\)	.	.	.	.	.	.	.	.	.	.
16B\JJ	16ee\JJ	.	.	.	.	.	.	.	.	.	.
!	!	!	!	!	!	!	!	!	!LO:TX:a:t=(z rozpaczą)	!	!
16E\LL 16G#	8eee\L	.	.	.	.	.	.	.	4ee\	Bo-	.
16B\	.	.	.	.	.	.	.	.	.	.	.
16E\ 16G#	8bb\	.	.	.	.	.	.	.	.	.	.
16B\	.	.	.	.	.	.	.	.	.	.	.
16E\ 16G#	8gg#\	.	.	.	.	.	.	.	4ee\	-że	.
16B\	.	.	.	.	.	.	.	.	.	.	.
16E\ 16G#	8ee\J	.	.	.	.	.	.	.	.	.	.
16B\JJ	.	.	.	.	.	.	.	.	.	.	.
=20	=20	=20	=20	=20	=20	=20	=20	=20	=20	=20	=20
*	*tremolo	*	*	*	*	*	*	*	*	*	*
8A/L	16cc\LL 16ee 16aa	.	1r	.	.	1r	.	.	4.aa\	li-	.
.	16a\	.	.	.	.	.	.	.	.	.	.
16AA/L	16cc\ 16ee 16aa	.	.	.	.	.	.	.	.	.	.
16BB/JJ	16a\	.	.	.	.	.	.	.	.	.	.
16C/LL	16cc\ 16ee 16aa	.	.	.	.	.	.	.	.	.	.
16BB/	16a\	.	.	.	.	.	.	.	.	.	.
16C/	16cc\ 16ee 16aa	.	.	.	.	.	.	.	8a/	-tość	.
16AA/JJ	16a\JJ	.	.	.	.	.	.	.	.	.	.
8A\L	16cc\LL 16ee 16aa	.	.	.	.	.	.	.	4a/	miej	.
.	16a\	.	.	.	.	.	.	.	.	.	.
8E\	16cc\ 16ee 16aa	.	.	.	.	.	.	.	.	.	.
.	16a\	.	.	.	.	.	.	.	.	.	.
8C\	16cc\ 16ee 16aa	.	.	.	.	.	.	.	4cc\	nad	.
.	16a\	.	.	.	.	.	.	.	.	.	.
8AA\J	16cc\ 16ee 16aa	.	.	.	.	.	.	.	.	.	.
.	16a\JJ	.	.	.	.	.	.	.	.	.	.
=21	=21	=21	=21	=21	=21	=21	=21	=21	=21	=21	=21
16E\LL 16G#X	8b\L 8ee 8gg#X	.	2B\	stój	.	1r	.	.	4ee\	na-	.
!	!	!	!	!	!	!	!	!LO:LB:g=original	!	!	!
16B\	.	.	.	.	.	.	.	.	.	.	.
16E\ 16G#	(16ee\L	.	.	.	.	.	.	.	.	.	.
16B\	16ff#X\JJ	.	.	.	.	.	.	.	.	.	.
16E\ 16G#	16gg#\LL	.	.	.	.	.	.	.	8ee\	-mi	.
16B\	16ff#\	.	.	.	.	.	.	.	.	.	.
16E\ 16G#	16gg#\	.	.	.	.	.	.	.	8r	.	.
16B\JJ	16ee\JJ)	.	.	.	.	.	.	.	.	.	.
16E\LL 16G#	8eee\L	.	2r	.	.	.	.	.	4.ee\	bie-	.
16B\	.	.	.	.	.	.	.	.	.	.	.
16E\ 16G#	8bb\	.	.	.	.	.	.	.	.	.	.
16B\	.	.	.	.	.	.	.	.	.	.	.
16E\ 16G#	8gg#\	.	.	.	.	.	.	.	.	.	.
16B\	.	.	.	.	.	.	.	.	.	.	.
16E\ 16G#	8ee\J	.	.	.	.	.	.	.	8ee\	-gnę	.
16B\JJ	.	.	.	.	.	.	.	.	.	.	.
!LO:LB:g=original	!LO:LB:g=original	!	!	!	!	!	!	!	!LO:LB:g=original	!	!
=22	=22	=22	=22	=22	=22	=22	=22	=22	=22	=22	=22
*	*tremolo	*	*	*	*	*	*	*	*	*	*
8A/L	16cc\LL 16ee 16aa	.	2r	.	.	1r	.	.	2.aa\	bie-	.
.	16a\	.	.	.	.	.	.	.	.	.	.
16AA/L	16cc\ 16ee 16aa	.	.	.	.	.	.	.	.	.	.
16BB/JJ	16a\ 16cc	.	.	.	.	.	.	.	.	.	.
16C/LL	16cc\ 16ee 16aa	.	.	.	.	.	.	.	.	.	.
16BB/	16a\	.	.	.	.	.	.	.	.	.	.
16C/	16cc\ 16ee 16aa	.	.	.	.	.	.	.	.	.	.
16AA/JJ	16a\JJ	.	.	.	.	.	.	.	.	.	.
!	!	!	!LO:TX:a:t=(zatrzymując ją)	!	!	!	!	!	!	!	!
8A\L	16cc\LL 16ee 16aa	.	4r	.	.	.	.	.	.	.	.
.	16a\ 16cc	.	.	.	.	.	.	.	.	.	.
8E\	16cc\ 16ee 16aa	.	.	.	.	.	.	.	.	.	.
.	16a\	.	.	.	.	.	.	.	.	.	.
8C\	16cc\ 16ee 16aa	.	4c\	ah!	.	.	.	.	4a/	-gnę	.
.	16a\	.	.	.	.	.	.	.	.	.	.
8AA\J	16cc\ 16ee 16aa	.	.	.	.	.	.	.	.	.	.
.	16a\JJ	.	.	.	.	.	.	.	.	.	.
=23	=23	=23	=23	=23	=23	=23	=23	=23	=23	=23	=23
4E\	4b\ 4ee 4gg#X	.	2B;\	stój!	.	1r	.	.	4ee\	z to-	.
4EE/ 4E	4e/	f	.	.	.	.	.	.	4e/	-bą	.
4r;	4r;	.	4r	.	.	.	.	.	4r;	.	.
4r	4r	.	4B\	Czyż	.	.	.	.	4r	.	.
=24	=24	=24	=24	=24	=24	=24	=24	=24	=24	=24	=24
4D\ 4F 4G#X	1r	p	(8c^\L	złość	.	1r	.	.	1r	.	.
.	.	.	8B\J)	.	.	.	.	.	.	.	.
4D\ 4F 4G#	.	.	(8c^\L	lu-	.	.	.	.	.	.	.
.	.	.	8B\J)	.	.	.	.	.	.	.	.
4D\ 4F 4G#	.	.	(8B\L	-dzką	.	.	.	.	.	.	.
.	.	.	8A\J)	.	.	.	.	.	.	.	.
4D\ 4F 4G#	.	.	8A\	zmiek-	.	.	.	.	.	.	.
.	.	.	8G#X\	-czym	.	.	.	.	.	.	.
=25	=25	=25	=25	=25	=25	=25	=25	=25	=25	=25	=25
4C\ 4E 4A	8r	.	4B^\	łza-	.	1r	.	.	1r	.	.
.	(8a\L	.	.	.	.	.	.	.	.	.	.
4C\ 4E 4A	8ff^<\	.	8A\	-mi	.	.	.	.	.	.	.
.	8ee\J)	.	8r	.	.	.	.	.	.	.	.
4C\ 4E 4A	8r	.	4.c\	ah!	.	.	.	.	.	.	.
.	(8aa\L	.	.	.	.	.	.	.	.	.	.
4C\ 4E 4A	8fff^<\	.	.	.	.	.	.	.	.	.	.
.	8eee\J)	.	8c\	nie-	.	.	.	.	.	.	.
=26	=26	=26	=26	=26	=26	=26	=26	=26	=26	=26	=26
4D\ 4F 4G#X	1r	f	(8c\L	-ba-	.	1r	.	.	1r	.	.
!	!LO:LB:g=original	!	!	!	!	!LO:LB:g=original	!	!	!LO:LB:g=original	!	!
.	.	.	8B\J)	.	.	.	.	.	.	.	.
4D\ 4F 4G#	.	.	(8c\L	-czna	.	.	.	.	.	.	.
.	.	.	8B\J)	.	.	.	.	.	.	.	.
4D\ 4F 4G#	.	.	(8B\L	ah!	.	.	.	.	.	.	.
.	.	.	8A\J)	.	.	.	.	.	.	.	.
4D\ 4F 4F#X 4G#	.	.	(8A\L	nie-	.	.	.	.	.	.	.
.	.	.	8G#X\J)	.	.	.	.	.	.	.	.
!LO:LB:g=original	!	!	!LO:LB:g=original	!	!	!	!	!	!	!	!
=27	=27	=27	=27	=27	=27	=27	=27	=27	=27	=27	=27
4C\ 4E 4A	8r	.	4B\	-ba-	.	1r	.	.	1r	.	.
.	(8cc\L	.	.	.	.	.	.	.	.	.	.
4C\ 4E 4A	8ee^<\	.	8A\	-czna	.	.	.	.	.	.	.
.	8a\J)	.	8r	.	.	.	.	.	.	.	.
4AA\ 4C 4E 4A	8r	.	4c\	Zgon	.	.	.	.	.	.	.
.	(8ccc\L	.	.	.	.	.	.	.	.	.	.
4A\ 4c 4e	8eee^<\	.	4c\	Żu-	.	.	.	.	.	.	.
.	8aa\J)	.	.	.	.	.	.	.	.	.	.
=28	=28	=28	=28	=28	=28	=28	=28	=28	=28	=28	=28
!	!	!LO:HP:t=cres---	!	!	!	!	!	!	!	!	!
4G\ 4c#X 4e	8r	<	4c#X\	-a-	.	1r	.	.	1r	.	.
*	*Xtremolo	*	*	*	*	*	*	*	*	*	*
.	(8cc#X\L	.	.	.	.	.	.	.	.	.	.
4G\ 4c# 4e	8ee^\	.	4B-X\	-na	.	.	.	.	.	.	.
.	8cc#\J)	.	.	.	.	.	.	.	.	.	.
4C#X\ 4E 4A	8r	.	4A\	ty	.	.	.	.	.	.	.
.	(8ee\L	.	.	.	.	.	.	.	.	.	.
4C#\ 4E 4A	8gg^\	.	4E\	przy-	.	.	.	.	.	.	.
.	8a\J)	.	.	.	.	.	.	.	.	.	.
=29	=29	=29	=29	=29	=29	=29	=29	=29	=29	=29	=29
4D\ 4F 4A 4d	8r	.	4G\	-spie-	.	1r	.	.	1r	.	.
.	(8dd\L	.	.	.	.	.	.	.	.	.	.
4D\ 4F 4A 4d	8ff^\	.	8F\	-szysz	.	.	.	.	.	.	.
.	8a\J)	.	8r	.	.	.	.	.	.	.	.
4D\ 4F 4A 4d	8r	.	4.d\	ty	.	.	.	.	.	.	.
.	(8ff\L	.	.	.	.	.	.	.	.	.	.
4D\ 4F 4A 4d	8aa^\	.	.	.	.	.	.	.	.	.	.
.	8dd\J)	.	8d\	przy-	.	.	.	.	.	.	.
=30	=30	=30	=30	=30	=30	=30	=30	=30	=30	=30	=30
!	!	!	!	!	!	!	!	!	!LO:TX:a:t=(wydzierając się gwałtownie)	!	!
8D#X\L 8F#X 8A 8c	8r	.	4.c\	-spie-	.	1r	.	.	4.ff#X\	Puść	.
8D#\ 8F# 8A 8c	(8aa\L	.	.	.	.	.	.	.	.	.	.
8D#\ 8F# 8A 8c	8ccc^\	.	.	.	.	.	.	.	.	.	.
8D#\J 8F# 8A 8c	8aa\J)	.	8c\	-szysz	.	.	.	.	8ff#\	mnie	.
8D#\L 8F# 8A 8c	8r	.	4c\	ża-	.	.	.	.	4ff#\	oj-	.
8D#\ 8F# 8A 8c	(8aa\L	.	.	.	.	.	.	.	.	.	.
8D#\ 8F# 8A 8c	8ccc^\	.	4A\	-lem	.	.	.	.	4ff#\	-cze	.
8D#\J 8F# 8A 8c	8aa\J)	.	.	.	.	.	.	.	.	.	.
=31	=31	=31	=31	=31	=31	=31	=31	=31	=31	=31	=31
16E\LL 16G#X	8r	f	4G#X\	twym	.	1r	.	.	4ee\	mój	.
!	!	!	!	!	!	!	!LO:LB:g=original	!	!	!	!
16B\	.	.	.	.	.	.	.	.	.	.	.
16E\ 16G#	(16ee\LL	.	.	.	.	.	.	.	.	.	.
16B\	16ff#X\JJ	.	.	.	.	.	.	.	.	.	.
16E\ 16G#	16gg#X\LL	.	4r	.	.	.	.	.	4r	.	.
16B\	16ff#\	.	.	.	.	.	.	.	.	.	.
16E\ 16G#	16gg#\	.	.	.	.	.	.	.	.	.	.
16B\JJ	16ee\JJ)	.	.	.	.	.	.	.	.	.	.
*	*tremolo	*	*	*	*	*	*	*	*	*	*
16E\LL 16G#	16eee\LL	.	2r	.	.	.	.	.	4.ee\	Ja	.
!	!	!	!LO:LB:g=original	!	!	!	!	!	!	!	!
16B\	16ee\	.	.	.	.	.	.	.	.	.	.
16E\ 16G#	16eee\	.	.	.	.	.	.	.	.	.	.
16B\	16ee\	.	.	.	.	.	.	.	.	.	.
16E\ 16G#	16eee\	.	.	.	.	.	.	.	.	.	.
16B\	16ee\	.	.	.	.	.	.	.	.	.	.
16E\ 16G#	16eee\	.	.	.	.	.	.	.	8ee\	chcę	.
!	!	!	!	!	!	!	!	!	!LO:LB:g=original	!	!
16B\JJ	16ee\JJ	.	.	.	.	.	.	.	.	.	.
!LO:LB:g=original	!LO:LB:g=original	!	!	!	!	!	!	!	!	!	!
=32	=32	=32	=32	=32	=32	=32	=32	=32	=32	=32	=32
16F\LL 16A	8r	.	1r	.	.	1r	.	.	2.aa\	u-	.
16d#X\	.	.	.	.	.	.	.	.	.	.	.
16F\ 16A	(16a\LL	.	.	.	.	.	.	.	.	.	.
16d#\	16b\JJ	.	.	.	.	.	.	.	.	.	.
16F\ 16A	16cc\LL	.	.	.	.	.	.	.	.	.	.
16d#\	16b\	.	.	.	.	.	.	.	.	.	.
16F\ 16A	16cc\	.	.	.	.	.	.	.	.	.	.
16d#\JJ	16a\JJ)	.	.	.	.	.	.	.	.	.	.
16F\LL 16A	16aa\LL	.	.	.	.	.	.	.	.	.	.
16d#\	16a\	.	.	.	.	.	.	.	.	.	.
16F\ 16A	16aa\	.	.	.	.	.	.	.	.	.	.
16d#\	16a\	.	.	.	.	.	.	.	.	.	.
16F\ 16A	16aa\	.	.	.	.	.	.	.	4dd#X\	-mrzeć	.
16d#\	16a\	.	.	.	.	.	.	.	.	.	.
16F\ 16A	16aa\	.	.	.	.	.	.	.	.	.	.
16d#\JJ	16a\JJ	.	.	.	.	.	.	.	.	.	.
=33	=33	=33	=33	=33	=33	=33	=33	=33	=33	=33	=33
4G#X\ 4B 4e	4ee\	.	2r	.	.	1r	.	.	4ee\	z nim	.
4EE/ 4E	4g#X\ 4b 4ee 4gg#X	sf	.	.	.	.	.	.	4r	.	.
2r	2r	.	2G#X\	u-	.	.	.	.	2r	.	.
=34	=34	=34	=34	=34	=34	=34	=34	=34	=34	=34	=34
4r	4r	.	4E\	-mrzeć	.	1r	.	.	1r	.	.
4EE/ 4E	4ee\ 4gg#X 4bb 4eee	sf	4r	.	.	.	.	.	.	.	.
2r	2r	.	2B\	u-	.	.	.	.	.	.	.
=35	=35	=35	=35	=35	=35	=35	=35	=35	=35	=35	=35
4r	4r	.	4G#X\	-mrzeć	.	1r	.	.	1r	.	.
4EE/ 4E	4ee\ 4gg#X 4bb 4eee	sf	8r	.	.	.	.	.	.	.	.
.	.	.	8e\	i	.	.	.	.	.	.	.
2r	2r	.	4d\	oj-	.	.	.	.	.	.	.
.	.	.	4d\	-ciec	.	.	.	.	.	.	.
=36	=36	=36	=36	=36	=36	=36	=36	=36	=36	=36	=36
*	*^	*	*	*	*	*	*	*	*	*	*
(<(1FF (<1F	2r	(1A^	.	4.d\	czyż	.	1r	.	.	1r	.	.
.	.	.	.	8c\	po-	.	.	.	.	.	.	.
!	!LO:TX:b:t=rallen	!	!	!	!	!	!	!	!	!	!	!
.	(2d#X/	.	.	8c\	-zwo-	.	.	.	.	.	.	.
.	.	.	.	8B\	-li	.	.	.	.	.	.	.
.	.	.	.	(8B\L	na	.	.	.	.	.	.	.
.	.	.	.	8A\J)	.	.	.	.	.	.	.	.
*	*v	*v	*	*	*	*	*	*	*	*	*	*
=37	=37	=37	=37	=37	=37	=37	=37	=37	=37	=37	=37
2EE;/)) 2E)	2G#X;/)) 2B 2e	.	2G#X;\	to.	.	1r	.	.	1r;	.	.
2r;	2r;	.	2r;	.	.	.	.	.	.	.	.
=38	=38	=38	=38	=38	=38	=38	=38	=38	=38	=38	=38
!	!LO:TX:a:t=a tempo\nMeno vivo	!	!	!	!	!	!	!	!	!	!
4CC/ 4C	8r	p	1r	.	.	1r	.	.	1r	.	.
.	16c/LL 16e	.	.	.	.	.	.	.	.	.	.
.	16Gn/JJ	.	.	.	.	.	.	.	.	.	.
4r	8c/L 8e	.	.	.	.	.	.	.	.	.	.
.	8c/ 8e	.	.	.	.	.	.	.	.	.	.
2r	8c/ 8e	.	.	.	.	.	.	.	.	.	.
.	8c/ 8e	.	.	.	.	.	.	.	.	.	.
.	8c/ 8e	.	.	.	.	.	.	.	.	.	.
.	8c/J 8e	.	.	.	.	.	.	.	.	.	.
=39	=39	=39	=39	=39	=39	=39	=39	=39	=39	=39	=39
4CC/ 4C	8r	.	1r	.	.	1r	.	.	1r	.	.
!	!	!	!LO:PB:g=original	!	!	!LO:PB:g=original	!	!	!LO:PB:g=original	!	!
.	16c/LL 16e	.	.	.	.	.	.	.	.	.	.
.	16Gn/JJ	.	.	.	.	.	.	.	.	.	.
4r	8c/L 8e	.	.	.	.	.	.	.	.	.	.
.	8c/ 8e	.	.	.	.	.	.	.	.	.	.
2r	8c/ 8e	.	.	.	.	.	.	.	.	.	.
.	8c/ 8e	.	.	.	.	.	.	.	.	.	.
.	8c/ 8e	.	.	.	.	.	.	.	.	.	.
.	8c/J 8e	.	.	.	.	.	.	.	.	.	.
!LO:PB:g=original	!LO:PB:g=original	!	!	!	!	!	!	!	!	!	!
=40	=40	=40	=40	=40	=40	=40	=40	=40	=40	=40	=40
!	!	!	!LO:TX:a:t=espressivo	!	!	!	!	!	!	!	!
8C\L	1r	.	2c\	Mu-	.	1r	.	.	1r	.	.
8E\J 8G	.	.	.	.	.	.	.	.	.	.	.
8E\L 8G	.	.	.	.	.	.	.	.	.	.	.
8E\ 8G	.	.	.	.	.	.	.	.	.	.	.
8E\ 8G	.	.	4B\	-szę	.	.	.	.	.	.	.
8E\ 8G	.	.	.	.	.	.	.	.	.	.	.
8E\ 8G	.	.	4A\	na	.	.	.	.	.	.	.
8E\J 8G	.	.	.	.	.	.	.	.	.	.	.
=41	=41	=41	=41	=41	=41	=41	=41	=41	=41	=41	=41
*^	*	*	*	*	*	*	*	*	*	*	*
4BB/	8BB\L	8r	.	2A\	cię-	.	1r	.	.	1r	.	.
!	!	!LO:TX:a:t=Vno	!	!	!	!	!	!	!	!	!	!
.	8D\J 8F 8G	(16g/LL	.	.	.	.	.	.	.	.	.	.
.	.	16a/JJ	.	.	.	.	.	.	.	.	.	.
4ryy	8D\L 8F 8G	16b/LL	.	.	.	.	.	.	.	.	.	.
.	.	16a/	.	.	.	.	.	.	.	.	.	.
.	8D\ 8F 8G	16b/	.	.	.	.	.	.	.	.	.	.
.	.	16g/JJ)	.	.	.	.	.	.	.	.	.	.
2ryy	8D\ 8F 8G	16gg\LL	.	4G\	-żkie	.	.	.	.	.	.	.
.	.	16gg\	.	.	.	.	.	.	.	.	.	.
.	8D\ 8F 8G	16gg\	.	.	.	.	.	.	.	.	.	.
.	.	16gg\JJ	.	.	.	.	.	.	.	.	.	.
.	8D\ 8F 8G	16gg\LL	.	4G\	na-	.	.	.	.	.	.	.
.	.	16gg\	.	.	.	.	.	.	.	.	.	.
.	8D\J 8F 8G	16gg\	.	.	.	.	.	.	.	.	.	.
.	.	16gg\JJ	.	.	.	.	.	.	.	.	.	.
=42	=42	=42	=42	=42	=42	=42	=42	=42	=42	=42	=42	=42
4BB/	8BB\L	1r	.	2A\	-ra-	.	1r	.	.	1r	.	.
.	8D\J 8F 8G	.	.	.	.	.	.	.	.	.	.	.
4ryy	8D\L 8F 8G	.	.	.	.	.	.	.	.	.	.	.
.	8D\ 8F 8G	.	.	.	.	.	.	.	.	.	.	.
2ryy	8D\ 8F 8G	.	.	4G\	-zić	.	.	.	.	.	.	.
.	8D\ 8F 8G	.	.	.	.	.	.	.	.	.	.	.
.	8D\ 8F 8G	.	.	4F\	się	.	.	.	.	.	.	.
.	8D\J 8F 8G	.	.	.	.	.	.	.	.	.	.	.
=43	=43	=43	=43	=43	=43	=43	=43	=43	=43	=43	=43	=43
4C/	8C\L	8r	.	2D#X\	pró-	.	1r	.	.	1r	.	.
!	!	!LO:TX:b:t=Flau	!	!	!	!	!	!	!	!	!	!
.	8E\J 8G	(16ccc\LL	.	.	.	.	.	.	.	.	.	.
.	.	16ddd\JJ	.	.	.	.	.	.	.	.	.	.
4ryy	8E\L 8G	16eee\LL	.	.	.	.	.	.	.	.	.	.
.	.	16ddd\	.	.	.	.	.	.	.	.	.	.
.	8E\ 8G	16eee\	.	.	.	.	.	.	.	.	.	.
.	.	16ccc\JJ)	.	.	.	.	.	.	.	.	.	.
2ryy	8E\ 8G	8gg\L	.	4E\	-by	.	.	.	.	.	.	.
!	!	!LO:TX:b:t=Ob	!	!	!	!	!	!	!	!	!	!
.	8E\ 8G	(16cc\L	.	.	.	.	.	.	.	.	.	.
.	.	16dd\JJ	.	.	.	.	.	.	.	.	.	.
.	8E\ 8G	16ee\LL	.	4r	.	.	.	.	.	.	.	.
.	.	16dd\	.	.	.	.	.	.	.	.	.	.
.	8E\J 8G	16ee\	.	.	.	.	.	.	.	.	.	.
.	.	16cc\JJ)	.	.	.	.	.	.	.	.	.	.
=44	=44	=44	=44	=44	=44	=44	=44	=44	=44	=44	=44	=44
4C/	8C\L	4g/	.	2c\	choć-	.	1r	.	.	1r	.	.
!	!	!	!	!	!	!	!LO:LB:g=original	!	!	!LO:LB:g=original	!	!
.	8E\J 8G	.	.	.	.	.	.	.	.	.	.	.
4ryy	8E\L 8G	4r	.	.	.	.	.	.	.	.	.	.
.	8E\ 8G	.	.	.	.	.	.	.	.	.	.	.
2ryy	8E\ 8G	2r	.	4B\	-by	.	.	.	.	.	.	.
!	!	!LO:LB:g=original	!	!	!	!	!	!	!	!	!	!
.	8E\ 8G	.	.	.	.	.	.	.	.	.	.	.
.	8E\ 8G	.	.	4A\	mi	.	.	.	.	.	.	.
.	8E\J 8G	.	.	.	.	.	.	.	.	.	.	.
!	!LO:LB:g=original	!	!	!	!	!	!	!	!	!	!	!
=45	=45	=45	=45	=45	=45	=45	=45	=45	=45	=45	=45	=45
4BB/	8BB\L	8r	.	2A\	przy-	.	1r	.	.	1r	.	.
!	!	!LO:TX:a:t=Vno	!	!	!	!	!	!	!	!	!	!
.	8D\J 8F 8G	(16g/LL	.	.	.	.	.	.	.	.	.	.
.	.	16a/JJ	.	.	.	.	.	.	.	.	.	.
4ryy	8D\L 8F 8G	16b/LL	.	.	.	.	.	.	.	.	.	.
.	.	16a/	.	.	.	.	.	.	.	.	.	.
.	8D\ 8F 8G	16b/	.	.	.	.	.	.	.	.	.	.
.	.	16g/JJ)	.	.	.	.	.	.	.	.	.	.
2ryy	8D\ 8F 8G	16gg\LL	.	2G\	-szło	.	.	.	.	.	.	.
.	.	16gg\	.	.	.	.	.	.	.	.	.	.
.	8D\ 8F 8G	16gg\	.	.	.	.	.	.	.	.	.	.
.	.	16gg\JJ	.	.	.	.	.	.	.	.	.	.
.	8D\ 8F 8G	16gg\LL	.	.	.	.	.	.	.	.	.	.
.	.	16gg\	.	.	.	.	.	.	.	.	.	.
.	8D\J 8F 8G	16gg\	.	.	.	.	.	.	.	.	.	.
.	.	16gg\JJ	.	.	.	.	.	.	.	.	.	.
=46	=46	=46	=46	=46	=46	=46	=46	=46	=46	=46	=46	=46
4BB/	8BB\L	1r	.	4.A\	wła-	.	1r	.	.	1r	.	.
.	8D\J 8F 8G	.	.	.	.	.	.	.	.	.	.	.
4ryy	8D\L 8F 8G	.	.	.	.	.	.	.	.	.	.	.
.	8D\ 8F 8G	.	.	8G\	-snej	.	.	.	.	.	.	.
2ryy	8D\ 8F 8G	.	.	4.A\	krwi	.	.	.	.	.	.	.
.	8D\ 8F 8G	.	.	.	.	.	.	.	.	.	.	.
.	8D\ 8F 8G	.	.	.	.	.	.	.	.	.	.	.
.	8D\J 8F 8G	.	.	8G\	za-	.	.	.	.	.	.	.
*v	*v	*	*	*	*	*	*	*	*	*	*	*
=47	=47	=47	=47	=47	=47	=47	=47	=47	=47	=47	=47
4C/	4r	.	4G\	-pła-	.	1r	.	.	1r	.	.
4r	4e/ 4g 4cc	.	8C/	-tą	.	.	.	.	.	.	.
.	.	.	8r	.	.	.	.	.	.	.	.
!	!	!	!	!	!LO:DY:a	!	!	!	!	!	!
4C\ 4c	4r	.	(2e\	Dro-	<	.	.	.	.	.	.
4r	4e/ 4a 4ee	<	.	.	.	.	.	.	.	.	.
=48	=48	=48	=48	=48	=48	=48	=48	=48	=48	=48	=48
4BB\ 4B	4r	.	2d#X\)	.	.	1r	.	.	1r	.	.
4r	4f#X/ 4a 4dd#X	.	.	.	.	.	.	.	.	.	.
4EE/ 4E	4r	[	2dn\	-gie	[	.	.	.	.	.	.
4r	4g#X/ 4b 4ddn	.	.	.	.	.	.	.	.	.	.
=49	=49	=49	=49	=49	=49	=49	=49	=49	=49	=49	=49
4AA\ 4A	4r	>	2c#X\	dni	.	1r	.	.	1r	.	.
4r	4e/ 4a 4cc#X	.	.	.	.	.	.	.	.	.	.
4AA/	4r	.	4cn\	je-	.	.	.	.	.	.	.
4r	4e/ 4a 4ccn	]	8c\	-go	.	.	.	.	.	.	.
.	.	.	8c\	o-	.	.	.	.	.	.	.
=50	=50	=50	=50	=50	=50	=50	=50	=50	=50	=50	=50
*	*^	*	*	*	*	*	*	*	*	*	*
4D\	4b-X\	4ryy	.	4B-X\	-ca-	.	1r	.	.	1r	.	.
!	!	!	!	!	!	!	!LO:LB:g=original	!	!	!LO:LB:g=original	!	!
4r	4d/ 4f 4a	4ryy	.	8A\	-lić	.	.	.	.	.	.	.
.	.	.	.	8A\	od	.	.	.	.	.	.	.
4E\	4g#X/	4ryy	.	(4G#X\	zgu-	.	.	.	.	.	.	.
4r	8f#X/L	4B\ 4d	.	8F#X\L	.	.	.	.	.	.	.	.
.	8g#/J	.	.	8G#\J)	.	.	.	.	.	.	.	.
!LO:LB:g=original	!LO:LB:g=original	!	!	!LO:LB:g=original	!	!	!	!	!	!	!	!
*	*v	*v	*	*	*	*	*	*	*	*	*	*
=51	=51	=51	=51	=51	=51	=51	=51	=51	=51	=51	=51
4AA/	4r	.	4A\	-by	.	1r	.	.	1r	.	.
4r	4A/ 4c 4e 4a	.	4r	.	.	.	.	.	.	.	.
4C#X/	4r	p	2Gn\	o-	p	.	.	.	.	.	.
4r	4G/ 4B-X 4e	.	.	.	.	.	.	.	.	.	.
=52	=52	=52	=52	=52	=52	=52	=52	=52	=52	=52	=52
4D\	4r	.	2F#X\	-ca-	.	1r	.	.	1r	.	.
4r	4F#X/ 4A 4d	.	.	.	.	.	.	.	.	.	.
4DD/ 4D	4r	.	4Fn\	-lić	.	.	.	.	.	.	.
4r	4Fn/ 4A 4d	.	4F\	od	.	.	.	.	.	.	.
=53	=53	=53	=53	=53	=53	=53	=53	=53	=53	=53	=53
!	!	!	!	!	!LO:DY:a	!	!	!	!	!	!
4EE\	8E/ 8A 8c	.	1E	zgu-	<[	1r	.	.	1r	.	.
.	4E/ 4A 4c	.	.	.	.	.	.	.	.	.	.
4EE\	.	.	.	.	.	.	.	.	.	.	.
.	4E/ 4A 4c	<	.	.	.	.	.	.	.	.	.
4EE\	.	.	.	.	.	.	.	.	.	.	.
.	4E/ 4A 4c	.	.	.	.	.	.	.	.	.	.
4EE\	.	.	.	.	.	.	.	.	.	.	.
.	8E/ 8A 8c	[[	.	.	.	.	.	.	.	.	.
=54	=54	=54	=54	=54	=54	=54	=54	=54	=54	=54	=54
!	!	!	!	!	!LO:DY:a	!	!	!	!	!	!
4EE\	8D/ 8A 8B	>	2.F\	.	>	1r	.	.	1r	.	.
.	4D/ 4A 4B	.	.	.	.	.	.	.	.	.	.
4EE\	.	.	.	.	.	.	.	.	.	.	.
.	8D/ 8A 8B	.	.	.	.	.	.	.	.	.	.
4EE\	8D/ 8G#X 8B	.	.	.	.	.	.	.	.	.	.
.	4D/ 4G# 4B	.	.	.	.	.	.	.	.	.	.
4EE\	.	.	4E\	.	]	.	.	.	.	.	.
.	((8D/ 8G# 8B	]]	.	.	.	.	.	.	.	.	.
=55	=55	=55	=55	=55	=55	=55	=55	=55	=55	=55	=55
4AA\	4C/)) 4E 4A	.	4AA/	-by	.	1r	.	.	1r	.	.
4AAA/ 4AA	4a\ 4cc 4ee 4aa	sf	4r	.	.	.	.	.	.	.	.
4r	4r	.	8A\	pój-	.	.	.	.	.	.	.
.	.	.	8E\	-dę	.	.	.	.	.	.	.
4AAA/ 4AA	4a\ 4cc 4ee 4aa	sf	4r	.	.	.	.	.	.	.	.
=56	=56	=56	=56	=56	=56	=56	=56	=56	=56	=56	=56
4r	4r	.	8c\	pój-	.	1r	.	.	2r	.	.
!	!	!	!	!	!	!LO:LB:g=original	!	!	!	!	!
.	.	.	8A\	-dę	.	.	.	.	.	.	.
4AA\ 4A	4cc\ 4ee 4aa 4ccc	fz	4r	.	.	.	.	.	.	.	.
4GG/ 4G	(8.bb-X^\L	>	2r	.	.	.	.	.	4r	.	.
.	16gg\Jk	.	.	.	.	.	.	.	.	.	.
!	!	!	!LO:LB:g=original	!	!	!	!	!	!LO:TX:a:t=(klękając)	!	!
4C\ 4E 4B-X	16ee\LL	.	.	.	.	.	.	.	4cc\	o	.
!	!	!	!	!	!	!	!	!	!LO:LB:g=original	!	!
.	16cc\	.	.	.	.	.	.	.	.	.	.
.	16b-X\	.	.	.	.	.	.	.	.	.	.
.	16g\JJ)	]]	.	.	.	.	.	.	.	.	.
!LO:LB:g=original	!LO:LB:g=original	!	!	!	!	!	!	!	!	!	!
=57	=57	=57	=57	=57	=57	=57	=57	=57	=57	=57	=57
8FF\L 8F	8f/L	f	1r	.	.	1r	.	.	2aa^^\	Bo-	.
8A\J 8c	(16f/L	p	.	.	.	.	.	.	.	.	.
.	16g/JJ	.	.	.	.	.	.	.	.	.	.
8A\L 8c	16a/LL	.	.	.	.	.	.	.	.	.	.
.	16g/	.	.	.	.	.	.	.	.	.	.
8A\ 8c	16a/	.	.	.	.	.	.	.	.	.	.
.	16f/JJ)	.	.	.	.	.	.	.	.	.	.
8A\ 8c	16ff^<\LL	.	.	.	.	.	.	.	4ff\	-że!	.
.	16ff\	.	.	.	.	.	.	.	.	.	.
8A\ 8c	16ff\	.	.	.	.	.	.	.	.	.	.
.	16ff\JJ	.	.	.	.	.	.	.	.	.	.
8A\ 8c	16ff\LL	.	.	.	.	.	.	.	4r	.	.
.	16ff\	.	.	.	.	.	.	.	.	.	.
8A\J 8c	16ff\	.	.	.	.	.	.	.	.	.	.
.	16ff\JJ	.	.	.	.	.	.	.	.	.	.
=58	=58	=58	=58	=58	=58	=58	=58	=58	=58	=58	=58
*^	*	*	*	*	*	*	*	*	*	*	*
4F/	8F\L	8r	.	1r	.	.	1r	.	.	4.cc\	wspie-	.
.	8A\J 8c	(16ff\LL	.	.	.	.	.	.	.	.	.	.
.	.	16gg\JJ	.	.	.	.	.	.	.	.	.	.
4ryy	8A\L 8c	16aa\LL	.	.	.	.	.	.	.	.	.	.
.	.	16gg\	.	.	.	.	.	.	.	.	.	.
.	8A\ 8c	16aa\	.	.	.	.	.	.	.	8cc\	-raj	.
.	.	16ff\JJ)	.	.	.	.	.	.	.	.	.	.
2ryy	8A\ 8c	16ccc^<\LL	.	.	.	.	.	.	.	4.ff^\	oj-	.
.	.	16ccc\	.	.	.	.	.	.	.	.	.	.
.	8A\ 8c	16ccc\	.	.	.	.	.	.	.	.	.	.
.	.	16ccc\JJ	.	.	.	.	.	.	.	.	.	.
.	8A\ 8c	16ccc\LL	.	.	.	.	.	.	.	.	.	.
.	.	16ccc\	.	.	.	.	.	.	.	.	.	.
.	8A\J 8c	16ccc\	.	.	.	.	.	.	.	8ee\	-ca	.
.	.	16ccc\JJ	.	.	.	.	.	.	.	.	.	.
=59	=59	=59	=59	=59	=59	=59	=59	=59	=59	=59	=59	=59
!	!	!	!	!	!	!	!	!	!	!	!	!LO:DY:a
4F/	8F\L	8r	.	1r	.	.	1r	.	.	2ee\	kro-	>
.	8B-X\J 8d	(16bb-X\LL	.	.	.	.	.	.	.	.	.	.
.	.	16ccc\JJ	.	.	.	.	.	.	.	.	.	.
4ryy	8B-\L 8d	16ddd\LL	.	.	.	.	.	.	.	.	.	.
.	.	16ccc\	.	.	.	.	.	.	.	.	.	.
.	8B-\ 8d	16ddd\	.	.	.	.	.	.	.	.	.	.
.	.	16bb-\JJ)	.	.	.	.	.	.	.	.	.	.
2ryy	8B-\ 8d	16ff^<\LL	.	.	.	.	.	.	.	4dd\	-ki	.
.	.	16ff\	.	.	.	.	.	.	.	.	.	.
.	8B-\ 8d	16ff\	.	.	.	.	.	.	.	.	.	.
.	.	16ff\JJ	.	.	.	.	.	.	.	.	.	.
.	8B-\ 8d	16ff\LL	.	.	.	.	.	.	.	8r	.	]
.	.	16ff\	.	.	.	.	.	.	.	.	.	.
.	8B-\J 8d	16ff\	.	.	.	.	.	.	.	8dd\	od	.
.	.	16ff\JJ	.	.	.	.	.	.	.	.	.	.
=60	=60	=60	=60	=60	=60	=60	=60	=60	=60	=60	=60	=60
4F/	8F\L	8r	.	1r	.	.	1r	.	.	(2.gg\	gło-	.
.	8B-X\J 8d	(16b-X\LL	.	.	.	.	.	.	.	.	.	.
.	.	16cc\JJ	.	.	.	.	.	.	.	.	.	.
4ryy	8B-\L 8d	16dd\LL	.	.	.	.	.	.	.	.	.	.
.	.	16cc\	.	.	.	.	.	.	.	.	.	.
.	8B-\ 8d	16dd\	.	.	.	.	.	.	.	.	.	.
.	.	16b-\JJ)	.	.	.	.	.	.	.	.	.	.
2ryy	8B-\ 8d	16gg^\LL	.	.	.	.	.	.	.	.	.	.
.	.	16gg\	.	.	.	.	.	.	.	.	.	.
.	8B-\ 8d	16gg\	.	.	.	.	.	.	.	.	.	.
.	.	16gg\JJ	.	.	.	.	.	.	.	.	.	.
.	8B-\ 8d	16gg\LL	.	.	.	.	.	.	.	4dd-X\)	-wy	.
.	.	16gg\	.	.	.	.	.	.	.	.	.	.
.	8B-\J 8d	16gg\	.	.	.	.	.	.	.	.	.	.
.	.	16gg\JJ	.	.	.	.	.	.	.	.	.	.
=61	=61	=61	=61	=61	=61	=61	=61	=61	=61	=61	=61	=61
4E/	8E\L	8r	.	1r	.	.	1r	.	.	(2dd-X\	je-	.
!	!	!	!	!LO:LB:g=original	!	!	!LO:LB:g=original	!	!	!	!	!
.	8G\J 8B-X 8c	(16gg\LL	.	.	.	.	.	.	.	.	.	.
.	.	16aa\JJ	.	.	.	.	.	.	.	.	.	.
4ryy	8G\L 8B- 8c	16bb-X\LL	.	.	.	.	.	.	.	.	.	.
.	.	16aa\	.	.	.	.	.	.	.	.	.	.
.	8G\ 8B- 8c	16bb-\	.	.	.	.	.	.	.	.	.	.
.	.	16gg\JJ)	.	.	.	.	.	.	.	.	.	.
2ryy	8G\ 8B- 8c	16cc^\LL	.	.	.	.	.	.	.	2cc\)	-go	.
!	!	!	!	!	!	!	!	!	!	!LO:LB:g=original	!	!
.	.	16cc\	.	.	.	.	.	.	.	.	.	.
.	8G\ 8B- 8c	16cc\	.	.	.	.	.	.	.	.	.	.
.	.	16cc\JJ	.	.	.	.	.	.	.	.	.	.
.	8G\ 8B- 8c	16cc\LL	.	.	.	.	.	.	.	.	.	.
.	.	16cc\	.	.	.	.	.	.	.	.	.	.
.	8G\J 8B- 8c	16cc\	.	.	.	.	.	.	.	.	.	.
.	.	16cc\JJ	.	.	.	.	.	.	.	.	.	.
!LO:LB:g=original	!LO:LB:g=original	!	!	!	!	!	!	!	!	!	!	!
=62	=62	=62	=62	=62	=62	=62	=62	=62	=62	=62	=62	=62
4F/	8F\L	8r	.	1r	.	.	1r	.	.	(8dd#X^\L	od-	.
.	8B-X\J 8d	(16g/LL	>	.	.	.	.	.	.	8cc\J)	.	.
.	.	16a/JJ	.	.	.	.	.	.	.	.	.	.
4ryy	8B-\L 8d	16b-X/LL	.	.	.	.	.	.	.	(8dd#^\L	-wróć	.
.	.	16a/	.	.	.	.	.	.	.	.	.	.
.	8B-\ 8d	16b-/	.	.	.	.	.	.	.	8cc\J)	.	.
.	.	16g/JJ)	.	.	.	.	.	.	.	.	.	.
2ryy	8B-\ 8d	16c/LL	]	.	.	.	.	.	.	(8dd#^\L	sro-	.
.	.	16c/	.	.	.	.	.	.	.	.	.	.
.	8B-\ 8d	16c/	.	.	.	.	.	.	.	8cc\J)	.	.
.	.	16c/JJ	.	.	.	.	.	.	.	.	.	.
.	8B-\ 8d	16c/LL	.	.	.	.	.	.	.	(8b^/L	-gi	.
.	.	16c/	.	.	.	.	.	.	.	.	.	.
.	8B-\J 8d	16c/	.	.	.	.	.	.	.	8g/J)	.	.
.	.	16c/JJ	.	.	.	.	.	.	.	.	.	.
=63	=63	=63	=63	=63	=63	=63	=63	=63	=63	=63	=63	=63
4F/	8F\L	8r	.	1r	.	.	1r	.	.	2f^/	cios	.
.	8A\J 8c	(16f/LL	>	.	.	.	.	.	.	.	.	.
.	.	16g/JJ	.	.	.	.	.	.	.	.	.	.
4ryy	8A\L 8c	16a/LL	.	.	.	.	.	.	.	.	.	.
.	.	16g/	.	.	.	.	.	.	.	.	.	.
.	8A\ 8c	16a/	.	.	.	.	.	.	.	.	.	.
.	.	16f/JJ)	.	.	.	.	.	.	.	.	.	.
2ryy	8A\ 8c	16ff^\LL	]	.	.	.	.	.	.	2r	.	.
.	.	16ff\	.	.	.	.	.	.	.	.	.	.
.	8A\ 8c	16ff\	.	.	.	.	.	.	.	.	.	.
.	.	16ff\JJ	.	.	.	.	.	.	.	.	.	.
.	8A\ 8c	16ff\LL	.	.	.	.	.	.	.	.	.	.
.	.	16ff\	.	.	.	.	.	.	.	.	.	.
.	8A\J 8c	16ff\	.	.	.	.	.	.	.	.	.	.
.	.	16ff\JJ	.	.	.	.	.	.	.	.	.	.
=64	=64	=64	=64	=64	=64	=64	=64	=64	=64	=64	=64	=64
4F/	8F\L	8r	.	1r	.	.	1r	.	.	2ff\	z nie-	.
.	8B-X\J 8d	(16b-X\LL	>	.	.	.	.	.	.	.	.	.
.	.	16cc\JJ	.	.	.	.	.	.	.	.	.	.
4ryy	8B-\L 8d	16dd\LL	.	.	.	.	.	.	.	.	.	.
.	.	16cc\	.	.	.	.	.	.	.	.	.	.
.	8B-\ 8d	16dd\	.	.	.	.	.	.	.	.	.	.
.	.	16b-\JJ)	.	.	.	.	.	.	.	.	.	.
2ryy	8B-\ 8d	16bb-X^\LL	]	.	.	.	.	.	.	4ee\	-szczęść	.
.	.	16bb-\	.	.	.	.	.	.	.	.	.	.
.	8B-\ 8d	16bb-\	.	.	.	.	.	.	.	.	.	.
.	.	16bb-\JJ	.	.	.	.	.	.	.	.	.	.
.	8B-\ 8d	16bb-\LL	.	.	.	.	.	.	.	4dd\	ot-	.
.	.	16bb-\	.	.	.	.	.	.	.	.	.	.
.	8B-\J 8d	16bb-\	.	.	.	.	.	.	.	.	.	.
.	.	16bb-\JJ	.	.	.	.	.	.	.	.	.	.
=65	=65	=65	=65	=65	=65	=65	=65	=65	=65	=65	=65	=65
4F/	8F\L	8r	.	1r	.	.	1r	.	.	(4.cc\	-chła-	.
.	8A\J 8c	(16f/LL	>	.	.	.	.	.	.	.	.	.
.	.	16g/JJ	.	.	.	.	.	.	.	.	.	.
4ryy	8A\L 8c	16a/LL	.	.	.	.	.	.	.	.	.	.
.	.	16g/	.	.	.	.	.	.	.	.	.	.
.	8A\ 8c	16a/	.	.	.	.	.	.	.	8a/)	.	.
.	.	16f/JJ)	.	.	.	.	.	.	.	.	.	.
2ryy	8A\ 8c	16ff^\LL	]	.	.	.	.	.	.	4f/	-ni	.
.	.	16ff\	.	.	.	.	.	.	.	.	.	.
.	8A\ 8c	16ff\	.	.	.	.	.	.	.	.	.	.
.	.	16ff\JJ	.	.	.	.	.	.	.	.	.	.
.	8A\ 8c	16ff\LL	.	.	.	.	.	.	.	8f/	wyr-	.
.	.	16ff\	.	.	.	.	.	.	.	.	.	.
.	8A\J 8c	16ff\	.	.	.	.	.	.	.	8f/	-wij	.
.	.	16ff\JJ	.	.	.	.	.	.	.	.	.	.
=66	=66	=66	=66	=66	=66	=66	=66	=66	=66	=66	=66	=66
4F/	8F\L	8r	.	1r	.	.	1r	.	.	(2ff\	nas	.
!	!	!	!	!LO:LB:g=original	!	!	!LO:LB:g=original	!	!	!	!	!
.	8B-X\J 8d	(16b-X\LL	.	.	.	.	.	.	.	.	.	.
.	.	16cc\JJ	.	.	.	.	.	.	.	.	.	.
4ryy	8B-\L 8d	16dd\LL	.	.	.	.	.	.	.	.	.	.
.	.	16cc\	.	.	.	.	.	.	.	.	.	.
.	8B-\ 8d	16dd\	.	.	.	.	.	.	.	.	.	.
.	.	16b-\JJ)	.	.	.	.	.	.	.	.	.	.
2ryy	8B-\ 8d	16bb-X^\LL	.	.	.	.	.	.	.	4ee\)	.	.
.	.	16bb-\	.	.	.	.	.	.	.	.	.	.
.	8B-\ 8d	16bb-\	.	.	.	.	.	.	.	.	.	.
.	.	16bb-\JJ	.	.	.	.	.	.	.	.	.	.
.	8B-\ 8d	16bb-\LL	.	.	.	.	.	.	.	4dd\	głę-	.
!	!	!	!	!	!	!	!	!	!	!LO:LB:g=original	!	!
.	.	16bb-\	.	.	.	.	.	.	.	.	.	.
.	8B-\J 8d	16bb-\	.	.	.	.	.	.	.	.	.	.
.	.	16bb-\JJ	.	.	.	.	.	.	.	.	.	.
!LO:LB:g=original	!LO:LB:g=original	!	!	!	!	!	!	!	!	!	!	!
=67	=67	=67	=67	=67	=67	=67	=67	=67	=67	=67	=67	=67
4F/	8F\L	8r	.	1r	.	.	1r	.	.	(4.cc\	-bo-	.
.	8A\J 8c	16f/LL	.	.	.	.	.	.	.	.	.	.
.	.	(16g/JJ	.	.	.	.	.	.	.	.	.	.
4ryy	8A\L 8c	16a/LL	.	.	.	.	.	.	.	.	.	.
.	.	16g/	.	.	.	.	.	.	.	.	.	.
.	8A\ 8c	16a/	.	.	.	.	.	.	.	8dd\)	.	.
.	.	16f/JJ)	.	.	.	.	.	.	.	.	.	.
2ryy	8A\ 8c	16ff^\LL	.	.	.	.	.	.	.	4cc\	-kiej	.
.	.	16ff\	.	.	.	.	.	.	.	.	.	.
.	8A\ 8c	16ff\	.	.	.	.	.	.	.	.	.	.
.	.	16ff\JJ	.	.	.	.	.	.	.	.	.	.
.	8A\ 8c	16ff\LL	.	.	.	.	.	.	.	8r	.	.
.	.	16ff\	.	.	.	.	.	.	.	.	.	.
.	8A\J 8c	16ff\	.	.	.	.	.	.	.	8cc\	do	.
.	.	16ff\JJ	.	.	.	.	.	.	.	.	.	.
=68	=68	=68	=68	=68	=68	=68	=68	=68	=68	=68	=68	=68
8r	(1E	8r	.	1r	.	.	1r	.	.	(2cc#X\	cie-	.
8G/L 8A 8c#X	.	(16a/LL	.	.	.	.	.	.	.	.	.	.
.	.	16b/JJ	.	.	.	.	.	.	.	.	.	.
8G/ 8A 8c#	.	16cc#X\LL	.	.	.	.	.	.	.	.	.	.
.	.	16b\	.	.	.	.	.	.	.	.	.	.
8G/J 8A 8c#	.	16cc#\	.	.	.	.	.	.	.	.	.	.
.	.	16a\JJ)	.	.	.	.	.	.	.	.	.	.
8G/L 8A 8c#	.	16aa^\LL	.	.	.	.	.	.	.	4bn\)	.	.
.	.	16aa\	.	.	.	.	.	.	.	.	.	.
8G/ 8A 8c#	.	16aa\	.	.	.	.	.	.	.	.	.	.
.	.	16aa\JJ	.	.	.	.	.	.	.	.	.	.
8G/ 8A 8c#	.	16aa\LL	.	.	.	.	.	.	.	4cc#\	-bie	.
.	.	16aa\	.	.	.	.	.	.	.	.	.	.
8G/J 8A 8c#	.	16aa\	.	.	.	.	.	.	.	.	.	.
.	.	16aa\JJ	.	.	.	.	.	.	.	.	.	.
=69	=69	=69	=69	=69	=69	=69	=69	=69	=69	=69	=69	=69
4D/	8D\L)	8r	.	1r	.	.	1r	.	.	4ee\	wzno-	.
.	8F\J 8A 8d	(16ee\LL	.	.	.	.	.	.	.	.	.	.
.	.	16gg\JJ	.	.	.	.	.	.	.	.	.	.
4ryy	8F\L 8A 8d	4ff\)	.	.	.	.	.	.	.	8dd\	-szę	.
.	8F\J 8A 8d	.	.	.	.	.	.	.	.	8dd\	bła-	.
2ryy	8BBn\L	8r	.	.	.	.	.	.	.	4ff\	-gal-	.
.	8F\J 8G#X 8d	(16ddd\LL	.	.	.	.	.	.	.	.	.	.
.	.	16eee\JJ	.	.	.	.	.	.	.	.	.	.
.	8F\L 8G# 8d	4fff\)	.	.	.	.	.	.	.	8dd\	-ny	.
.	8F\J 8G# 8d	.	.	.	.	.	.	.	.	8dd\	bła-	.
=70	=70	=70	=70	=70	=70	=70	=70	=70	=70	=70	=70	=70
4C/	8C\L	8r	.	1r	.	.	1r	.	.	4dd^\	-gal-	.
!	!	!	!	!LO:LB:g=original	!	!	!LO:LB:g=original	!	!	!	!	!
.	8F\J 8A 8c	(16aa\LL	.	.	.	.	.	.	.	.	.	.
.	.	16ddd\JJ	.	.	.	.	.	.	.	.	.	.
4ryy	8F\L 8A 8c	4ccc\)	.	.	.	.	.	.	.	4ccn\	-ny	.
.	8F\J 8A 8c	.	.	.	.	.	.	.	.	.	.	.
4C/	8C\L	8r	.	.	.	.	.	.	.	(4dd^\	mój	.
.	8G\J 8B-X 8c	(16gg\LL	.	.	.	.	.	.	.	.	.	.
.	.	16ddd\JJ	.	.	.	.	.	.	.	.	.	.
4ryy	8G\L 8B- 8c	4ccc\)	.	.	.	.	.	.	.	4cc\)	.	.
!	!	!	!	!	!	!	!	!	!	!LO:LB:g=original	!	!
.	8G\J 8B- 8c	.	.	.	.	.	.	.	.	.	.	.
!LO:LB:g=original	!LO:LB:g=original	!	!	!	!	!	!	!	!	!	!	!
=71	=71	=71	=71	=71	=71	=71	=71	=71	=71	=71	=71	=71
4F/	8F\L	8r	.	1r	.	.	1r	.	.	4a/	głos	.
.	8A\J 8c	16aa\LL	.	.	.	.	.	.	.	.	.	.
.	.	16bb-X\JJ	.	.	.	.	.	.	.	.	.	.
4ryy	8A\L 8c	16ccc\LL	.	.	.	.	.	.	.	4r	.	.
.	.	16bbn\	.	.	.	.	.	.	.	.	.	.
.	8A\ 8c	16ccc\	.	.	.	.	.	.	.	.	.	.
.	.	16gg#X\JJ	.	.	.	.	.	.	.	.	.	.
2ryy	8A\ 8c	16aa\LL	.	.	.	.	.	.	.	2r	.	.
.	.	16gg#\	.	.	.	.	.	.	.	.	.	.
.	8A\ 8c	16aa\	.	.	.	.	.	.	.	.	.	.
.	.	16ee\JJ	.	.	.	.	.	.	.	.	.	.
.	8A\ 8c	16ff\LL	.	.	.	.	.	.	.	.	.	.
.	.	16cc\	.	.	.	.	.	.	.	.	.	.
.	8A\J 8c	16a\	.	.	.	.	.	.	.	.	.	.
.	.	16cc\JJ	.	.	.	.	.	.	.	.	.	.
=72	=72	=72	=72	=72	=72	=72	=72	=72	=72	=72	=72	=72
8r	1F	4f/	.	1r	.	.	1r	.	.	2aa\	Niech	.
8A/L 8c	.	.	.	.	.	.	.	.	.	.	.	.
8A/ 8c	.	4r	.	.	.	.	.	.	.	.	.	.
8A/J 8c	.	.	.	.	.	.	.	.	.	.	.	.
8A/L 8c	.	2dd#X\ 2ddd#X	.	.	.	.	.	.	.	2dd#X\	nam	.
8A/ 8c	.	.	.	.	.	.	.	.	.	.	.	.
8A/ 8c	.	.	.	.	.	.	.	.	.	.	.	.
8A/J 8c	.	.	.	.	.	.	.	.	.	.	.	.
=73	=73	=73	=73	=73	=73	=73	=73	=73	=73	=73	=73	=73
*	*tremolo	*	*	*	*	*	*	*	*	*	*	*
4E/	8E\L	(4ff#X\ 4fff#X	>	1r	.	.	1r	.	.	(4ff#X\	nie-	.
.	8A\ 8c#X	.	.	.	.	.	.	.	.	.	.	.
4ryy	8A\ 8c#	4ee\ 4eee	.	.	.	.	.	.	.	4ee\	-bo	.
.	8A\J 8c#	.	.	.	.	.	.	.	.	.	.	.
2ryy	8A\L 8c#	4a\ 4aa	.	.	.	.	.	.	.	4a/	się	.
.	8A\ 8c#	.	.	.	.	.	.	.	.	.	.	.
.	8A\ 8c#	4bn\) 4bbn	]]	.	.	.	.	.	.	4bn\)	od	.
.	8A\J 8c#	.	.	.	.	.	.	.	.	.	.	.
=74	=74	=74	=74	=74	=74	=74	=74	=74	=74	=74	=74	=74
4E/	8E\L	(2cc#X\ 2ccc#X	.	1r	.	.	1r	.	.	2cc#X\	chmu-	.
.	8A\ 8c#X	.	.	.	.	.	.	.	.	.	.	.
4ryy	8A\ 8c#	.	.	.	.	.	.	.	.	.	.	.
.	8A\J 8c#	.	.	.	.	.	.	.	.	.	.	.
2D/	8D\L	4b\) 4bb	.	.	.	.	.	.	.	4b\	-rzy	.
.	8E\ 8G#X 8B	.	.	.	.	.	.	.	.	.	.	.
.	8E\ 8G# 8B	4r	.	.	.	.	.	.	.	4r	.	.
.	8E\J 8G# 8B	.	.	.	.	.	.	.	.	.	.	.
=75	=75	=75	=75	=75	=75	=75	=75	=75	=75	=75	=75	=75
4C#X/	8C#\L	1r	.	1r	.	.	1r	.	.	(2ee^\	ser-	.
!	!	!LO:LB:g=original	!	!LO:LB:g=original	!	!	!LO:LB:g=original	!	!	!	!	!
.	8E\J 8A	.	.	.	.	.	.	.	.	.	.	.
4ryy	8E\L 8A	.	.	.	.	.	.	.	.	.	.	.
.	8E\ 8A	.	.	.	.	.	.	.	.	.	.	.
2ryy	8E\ 8A	.	.	.	.	.	.	.	.	4dd\)	.	.
.	8E\ 8A	.	.	.	.	.	.	.	.	.	.	.
.	8E\ 8A	.	.	.	.	.	.	.	.	4cc#X\	-ce	.
.	8E\J 8A	.	.	.	.	.	.	.	.	.	.	.
!LO:LB:g=original	!LO:LB:g=original	!	!	!	!	!	!	!	!	!LO:LB:g=original	!	!
=76	=76	=76	=76	=76	=76	=76	=76	=76	=76	=76	=76	=76
8r	(1D	8r	.	1r	.	.	1r	.	.	(4.b\	mo-	.
8E/L 8G#X 8B	.	16bb\LL	.	.	.	.	.	.	.	.	.	.
.	.	16ccc#X\JJ	.	.	.	.	.	.	.	.	.	.
8E/ 8G# 8B	.	16ddd\LL	.	.	.	.	.	.	.	.	.	.
.	.	16ccc#\	.	.	.	.	.	.	.	.	.	.
8E/J 8G# 8B	.	16ddd\	>	.	.	.	.	.	.	8cc#X\)	.	.
.	.	16aa#X\JJ	.	.	.	.	.	.	.	.	.	.
8E/L 8G# 8B	.	16bb\LL	.	.	.	.	.	.	.	4b\	-je	.
.	.	16aa#\	.	.	.	.	.	.	.	.	.	.
8E/ 8G# 8B	.	16bb\	.	.	.	.	.	.	.	.	.	.
.	.	16ff##X\JJ	.	.	.	.	.	.	.	.	.	.
8E/ 8G# 8B	.	16gg#X\LL	]	.	.	.	.	.	.	4r	.	.
.	.	16ff##\	.	.	.	.	.	.	.	.	.	.
8E/J 8G# 8B	.	16gg#\	.	.	.	.	.	.	.	.	.	.
.	.	16ee\JJ	.	.	.	.	.	.	.	.	.	.
=77	=77	=77	=77	=77	=77	=77	=77	=77	=77	=77	=77	=77
4C#X/	8C#\L)	4ee\	.	1r	.	.	1r	.	.	(2ee\	skrzep	.
.	8E\J 8A	.	.	.	.	.	.	.	.	.	.	.
4ryy	8E\L 8A	4r	.	.	.	.	.	.	.	.	.	.
.	8E\ 8A	.	.	.	.	.	.	.	.	.	.	.
2ryy	8E\ 8A	2r	.	.	.	.	.	.	.	4dd\)	.	.
.	8E\ 8A	.	.	.	.	.	.	.	.	.	.	.
.	8E\ 8A	.	.	.	.	.	.	.	.	4cc#X\	na-	.
.	8E\J 8A	.	.	.	.	.	.	.	.	.	.	.
=78	=78	=78	=78	=78	=78	=78	=78	=78	=78	=78	=78	=78
8r	1D	8r	.	1r	.	.	1r	.	.	(4.b\	-dzie-	.
8E/L 8G#X 8B	.	16bb\LL	>	.	.	.	.	.	.	.	.	.
.	.	16ccc#X\JJ	.	.	.	.	.	.	.	.	.	.
8E/ 8G# 8B	.	16ddd\LL	.	.	.	.	.	.	.	.	.	.
.	.	16ccc#\	.	.	.	.	.	.	.	.	.	.
8E/J 8G# 8B	.	16ddd\	.	.	.	.	.	.	.	8cc#X\)	.	.
.	.	16aa#X\JJ	.	.	.	.	.	.	.	.	.	.
8E/L 8G# 8B	.	16bb\LL	.	.	.	.	.	.	.	4b\	-ją	.
.	.	16aa#\	.	.	.	.	.	.	.	.	.	.
8E/ 8G# 8B	.	16bb\	]	.	.	.	.	.	.	.	.	.
.	.	16ff##X\JJ	.	.	.	.	.	.	.	.	.	.
8E/ 8G# 8B	.	16gg#X\LL	.	.	.	.	.	.	.	4r	.	.
.	.	16ff##\	.	.	.	.	.	.	.	.	.	.
8E/J 8G# 8B	.	16gg#\	.	.	.	.	.	.	.	.	.	.
.	.	16ee\JJ	.	.	.	.	.	.	.	.	.	.
=79	=79	=79	=79	=79	=79	=79	=79	=79	=79	=79	=79	=79
4C#X/	8C#\L	4ee\	.	1r	.	.	1r	.	.	4.ee\	o!	.
.	8E\J 8A	.	.	.	.	.	.	.	.	.	.	.
4ryy	8E\L 8A	4r	.	.	.	.	.	.	.	.	.	.
.	8E\ 8A	.	.	.	.	.	.	.	.	8ee\	niech	.
2ryy	8E\ 8A	2r	.	.	.	.	.	.	.	4dd\	jesz-	.
.	8E\ 8A	.	.	.	.	.	.	.	.	.	.	.
.	8E\ 8A	.	.	.	.	.	.	.	.	4cc#X\	-cze	.
.	8E\J 8A	.	.	.	.	.	.	.	.	.	.	.
=80	=80	=80	=80	=80	=80	=80	=80	=80	=80	=80	=80	=80
!	!	!	!	!	!	!	!	!	!	!	!	!LO:DY:a
4D/	8D\L	2r	.	1r	.	.	1r	.	.	(8cc#X\L	po-	<
!	!	!	!	!LO:LB:g=original	!	!	!LO:LB:g=original	!	!	!	!	!
.	8F#X\J 8B	.	.	.	.	.	.	.	.	8b\J	.	.
4ryy	8F#\L 8B	.	.	.	.	.	.	.	.	8a#X/L	-tej	.
.	8F#\ 8B	.	.	.	.	.	.	.	.	8b/J	.	.
*v	*v	*	*	*	*	*	*	*	*	*	*	*
*	*8va	*	*	*	*	*	*	*	*	*	*
*^	*	*	*	*	*	*	*	*	*	*	*
2ryy	8F#\ 8B	(8ggg#X\L	.	.	.	.	.	.	.	8gg#X\L	bu-	[
.	8F#\ 8B	8fff#X\	.	.	.	.	.	.	.	8ff#X\J	.	.
.	8F#\ 8B	8ddd\	.	.	.	.	.	.	.	8dd\L	-rzy	.
.	8F#\J 8B	8bb\J)	.	.	.	.	.	.	.	8b\J)	.	.
!LO:LB:g=original	!LO:LB:g=original	!LO:LB:g=original	!	!	!	!	!	!	!	!LO:LB:g=original	!	!
=81	=81	=81	=81	=81	=81	=81	=81	=81	=81	=81	=81	=81
4E/	8E\L	8bb/L	.	1r	.	.	1r	.	.	8b/	dni	.
.	8A\J 8c#X	(8aa/	.	.	.	.	.	.	.	8a/	po-	.
4ryy	8A\L 8c#	8gg#X/	.	.	.	.	.	.	.	8g#X/	-god-	.
.	8A\J 8c#	8aa/J	.	.	.	.	.	.	.	8a/	-ne	.
4E/	8E\L	8ccc#X/L	.	.	.	.	.	.	.	(8cc#X\L	za-	.
.	8G#X\J 8d	8bb/	.	.	.	.	.	.	.	8b\J	.	.
4ryy	8G#\L 8d	8aa/	.	.	.	.	.	.	.	8a\L	-ja-	.
.	8G#\J 8d	8bb/J)	.	.	.	.	.	.	.	8b\J)	.	.
*v	*v	*	*	*	*	*	*	*	*	*	*	*
*	*X8va	*	*	*	*	*	*	*	*	*	*
=82	=82	=82	=82	=82	=82	=82	=82	=82	=82	=82	=82
*^	*	*	*	*	*	*	*	*	*	*	*
4AA/	8AA\L	8r	.	1r	.	.	1r	.	.	2b#X\	-śnie-	.
.	8E\J 8A 8c#X	16aa\LL	.	.	.	.	.	.	.	.	.	.
.	.	16bb\JJ	.	.	.	.	.	.	.	.	.	.
4ryy	8E\L 8A 8c#	16aa\LL	.	.	.	.	.	.	.	.	.	.
.	.	16bb\	.	.	.	.	.	.	.	.	.	.
.	8E\ 8A 8c#	16aa\	.	.	.	.	.	.	.	.	.	.
.	.	16gg#X\JJ	.	.	.	.	.	.	.	.	.	.
2ryy	8E\ 8A 8c#	16aa\LL	.	.	.	.	.	.	.	4cc#X\	-ją	.
.	.	16gg#\	.	.	.	.	.	.	.	.	.	.
.	8E\ 8A 8c#	16aa\	.	.	.	.	.	.	.	.	.	.
.	.	16dd#X\JJ	.	.	.	.	.	.	.	.	.	.
.	8E\ 8A 8c#	16ee\LL	.	.	.	.	.	.	.	4r	.	.
.	.	16dd#\	.	.	.	.	.	.	.	.	.	.
.	8E\J 8A 8c#	16ee\	.	.	.	.	.	.	.	.	.	.
.	.	16cc#X\JJ	.	.	.	.	.	.	.	.	.	.
*v	*v	*	*	*	*	*	*	*	*	*	*	*
=83	=83	=83	=83	=83	=83	=83	=83	=83	=83	=83	=83
!	!	!	!	!	!	!	!	!	!	!	!LO:DY:a
!	!LO:TX:b:t=ben ritenuto	!	!	!	!	!	!	!	!	!	!LO:DY:a
(<2AA/	8a/L	.	1r	.	.	1r	.	.	2aa^^\	ah!	ff >
.	8A/J 8c#X 8a	.	.	.	.	.	.	.	.	.	.
.	8A/L 8c# 8a	.	.	.	.	.	.	.	.	.	.
.	8A/J 8c# 8a	.	.	.	.	.	.	.	.	.	.
4BB/	8r	.	.	.	.	.	.	.	4gg#X\	dni	.
.	8A/ 8d 8g#X	.	.	.	.	.	.	.	.	.	.
4C#X/	8r	.	.	.	.	.	.	.	4ggn\	po-	]]
.	8A/ 8e 8gn	.	.	.	.	.	.	.	.	.	.
=84	=84	=84	=84	=84	=84	=84	=84	=84	=84	=84	=84
!LO:N:vis=4	!	!	!	!	!	!	!	!	!	!	!LO:DY:a
8D\)	8r	.	1r	.	.	1r	.	.	4ff#X\	-go-	>
!	!	!	!LO:LB:g=original	!	!	!LO:LB:g=original	!	!	!	!	!
8r	8A/ 8d 8f#X	.	.	.	.	.	.	.	.	.	.
(4D\	8r	.	.	.	.	.	.	.	4ffn\	-dne	.
.	8A/ 8d 8fn	.	.	.	.	.	.	.	.	.	.
4E\	8r	.	.	.	.	.	.	.	4ee\	za-	.
.	8A/ 8cn 8e	.	.	.	.	.	.	.	.	.	.
4F#X\)	8r	.	.	.	.	.	.	.	4dd#X\	-ja-	]]
.	8A/ 8c 8d#X	.	.	.	.	.	.	.	.	.	.
!LO:LB:g=original	!LO:LB:g=original	!	!	!	!	!	!	!	!LO:LB:g=original	!	!
=85	=85	=85	=85	=85	=85	=85	=85	=85	=85	=85	=85
4E\	4A/ 4c#X 4e	.	1r	.	.	1r	.	.	2ee^^;\	-śnie-	.
4r	4r	.	.	.	.	.	.	.	.	.	.
!	!	!	!	!	!	!	!	!	!LO:N:vis=8	!	!LO:DY:a
*	*	*	*	*	*	*	*	*	*cue	*	*
*	*	*	*	*	*	*	*	*	*Xtuplet	*	*
2r;	2r;	.	.	.	.	.	.	.	(20dd#X\LL	.	>
!	!	!	!	!	!	!	!	!	!LO:N:vis=8	!	!
.	.	.	.	.	.	.	.	.	20ff#X\	.	.
!	!	!	!	!	!	!	!	!	!LO:N:vis=8	!	!
.	.	.	.	.	.	.	.	.	20ee\	.	.
!	!	!	!	!	!	!	!	!	!LO:N:vis=8	!	!
.	.	.	.	.	.	.	.	.	20b#X\	.	.
!	!	!	!	!	!	!	!	!	!LO:N:vis=8	!	!
.	.	.	.	.	.	.	.	.	20cc\	.	.
!	!	!	!	!	!	!	!	!	!LO:N:vis=8	!	!
.	.	.	.	.	.	.	.	.	24ddn\	.	.
!	!	!	!	!	!	!	!	!	!LO:N:vis=8	!	!
.	.	.	.	.	.	.	.	.	24cc#X\	.	.
!	!	!	!	!	!	!	!	!	!LO:N:vis=8	!	!
.	.	.	.	.	.	.	.	.	24g#X\	.	.
!	!	!	!	!	!	!	!	!	!LO:N:vis=8	!	!
.	.	.	.	.	.	.	.	.	24bn\	.	.
!	!	!	!	!	!	!	!	!	!LO:N:vis=8	!	!
.	.	.	.	.	.	.	.	.	24a\	.	.
!	!	!	!	!	!	!	!	!	!LO:N:vis=8	!	!
.	.	.	.	.	.	.	.	.	24f#X\JJ)	.	]]
*	*	*	*	*	*	*	*	*	*Xcue	*	*
=86	=86	=86	=86	=86	=86	=86	=86	=86	=86	=86	=86
4EE\ 4E	4G#X/ 4B 4e	.	1r	.	.	1r	.	.	4e;/	-ją	.
!	!	!	!	!LO:PB:g=original	!	!	!LO:PB:g=original	!	!LO:N:vis=4.	!	!
4r	4r	.	.	.	.	.	.	.	48fn^/	dni	.
!	!	!	!	!	!	!	!	!	!LO:N:vis-8	!	!
.	.	.	.	.	.	.	.	.	48e/	po-	.
!	!	!	!	!	!	!	!	!	!LO:N:vis=8	!	!
.	.	.	.	.	.	.	.	.	48g#X/	-go-	.
!	!	!	!	!	!	!	!	!	!LO:N:vis=8	!	!
.	.	.	.	.	.	.	.	.	48e~/	-dne	.
!	!	!	!	!	!	!	!	!	!LO:N:vis=8	!	!
.	.	.	.	.	.	.	.	.	48b\	za-	.
!	!	!	!	!	!	!	!	!	!LO:N:vis=8	!	!
.	.	.	.	.	.	.	.	.	48g#/	-ja-	.
.	.	.	.	.	.	.	.	.	24ff#X;\	-śnie-	.
.	.	.	.	.	.	.	.	.	24ee\	-ją	.
.	.	.	.	.	.	.	.	.	24b\	za-	.
.	.	.	.	.	.	.	.	.	(16qqcc#X/LL	.	.
.	.	.	.	.	.	.	.	.	16qqb/JJ	.	.
.	.	.	.	.	.	.	.	.	16qqa#X/LL	.	.
.	.	.	.	.	.	.	.	.	16qqb/JJ)	.	.
2r;	2r;	.	.	.	.	.	.	.	(4.dd;\	-ja-	.
.	.	.	.	.	.	.	.	.	8cc#X\)	-śnie-	.
!LO:PB:g=original	!LO:PB:g=original	!	!	!	!	!	!	!	!LO:PB:g=original	!	!
=87	=87	=87	=87	=87	=87	=87	=87	=87	=87	=87	=87
!	!LO:TX:a:t=Vivo	!	!	!	!	!	!	!	!	!	!
8AA/L 8C#X 8E	[4a/	f	1r	.	.	1r	.	.	4a/	-ją	.
8AA/J 8C# 8E	.	.	.	.	.	.	.	.	.	.	.
*	*Xtremolo	*	*	*	*	*	*	*	*	*	*
4AA\ 4C# 4E 4A	16a/LL]	.	.	.	.	.	.	.	4r	.	.
.	16g#X/	.	.	.	.	.	.	.	.	.	.
.	16a/	.	.	.	.	.	.	.	.	.	.
.	16e/JJ	.	.	.	.	.	.	.	.	.	.
!	!	!	!	!	!	!	!	!	!LO:TX:a:t=(D.ALONZO wbiegając z pierścieniem)	!	!
8AA\L 8C# 8E 8A	[4cc#X\	.	.	.	.	.	.	.	2r	.	.
8AA\J 8C# 8E 8A	.	.	.	.	.	.	.	.	.	.	.
4AA\ 4C# 4E 4A	16cc#\LL]	.	.	.	.	.	.	.	.	.	.
.	16b#X\	.	.	.	.	.	.	.	.	.	.
.	16cc#\	.	.	.	.	.	.	.	.	.	.
.	16a\JJ	.	.	.	.	.	.	.	.	.	.
=88	=88	=88	=88	=88	=88	=88	=88	=88	=88	=88	=88
!	!	!LO:HP:t=cres	!	!	!	!	!	!	!	!	!
8AA\L 8C#X 8E 8A	16ee\LL	<	1r	.	.	1r	.	.	1r	.	.
.	16dd#X\	.	.	.	.	.	.	.	.	.	.
8AA\ 8C# 8E 8A	16ee\	.	.	.	.	.	.	.	.	.	.
.	16cc#X\JJ	.	.	.	.	.	.	.	.	.	.
8AA\ 8C# 8E 8A	16aa\LL	.	.	.	.	.	.	.	.	.	.
.	16gg#X\	.	.	.	.	.	.	.	.	.	.
8AA\J 8C# 8E 8A	16aa\	.	.	.	.	.	.	.	.	.	.
.	16ee\JJ	.	.	.	.	.	.	.	.	.	.
8AA\L 8C# 8E 8A	16ccc#X\LL	.	.	.	.	.	.	.	.	.	.
.	16bb#X\	.	.	.	.	.	.	.	.	.	.
8AA\ 8C# 8E 8A	16ccc#\	.	.	.	.	.	.	.	.	.	.
.	16aa\JJ	.	.	.	.	.	.	.	.	.	.
8AA\ 8C# 8E 8A	16eee\LL	.	.	.	.	.	.	.	.	.	.
.	16ddd#X\	.	.	.	.	.	.	.	.	.	.
8AA\J 8C# 8E 8A	16eee\	.	.	.	.	.	.	.	.	.	.
.	16ccc#\JJ	.	.	.	.	.	.	.	.	.	.
=89	=89	=89	=89	=89	=89	=89	=89	=89	=89	=89	=89
*	*8va	*	*	*	*	*	*	*	*	*	*
*^	*	*	*	*	*	*	*	*	*	*	*
8r	[1AA	(4.eee\ 4.ggg	.	4r	.	.	1r	.	.	1r	.	.
!	!	!	!	!	!	!	!	!LO:LB:g=original	!	!	!LO:LB:g=original	!
*Xtremolo	*	*	*	*	*	*	*	*	*	*	*	*
8A/L	.	.	.	.	.	.	.	.	.	.	.	.
8A/	.	.	.	8A\	O-	.	.	.	.	.	.	.
8A/J	.	8ddd\ 8fff#X	.	8A\	-to	.	.	.	.	.	.	.
8A/L	.	4.ccc#X\ 4.eee	.	4A\	pier-	.	.	.	.	.	.	.
8A/	.	.	.	.	.	.	.	.	.	.	.	.
8A/	.	.	.	8A\	-ścień	.	.	.	.	.	.	.
8A/J	.	8bb\) 8ddd	.	8r	.	.	.	.	.	.	.	.
!LO:LB:g=original	!	!LO:LB:g=original	!	!LO:LB:g=original	!	!	!	!	!	!	!	!
=90	=90	=90	=90	=90	=90	=90	=90	=90	=90	=90	=90	=90
*tremolo	*	*	*	*	*	*	*	*	*	*	*	*
8A/L	1AA]	(4.aa\ 4.ccc#X	.	4.A\	gdy	.	1r	.	.	1r	.	.
8A/	.	.	.	.	.	.	.	.	.	.	.	.
8A/	.	.	.	.	.	.	.	.	.	.	.	.
8A/J	.	8gg/) 8bb	.	8A\	go	.	.	.	.	.	.	.
*	*	*X8va	*	*	*	*	*	*	*	*	*	*
8A/L	.	4.ff#X\ 4.aa	.	8A\	ma-	.	.	.	.	.	.	.
8A/	.	.	.	8A\	-my	.	.	.	.	.	.	.
8A/	.	.	.	8A\	wnet	.	.	.	.	.	.	.
8A/J	.	8ffn\ 8gg#X	.	8A\	wię-	.	.	.	.	.	.	.
=91	=91	=91	=91	=91	=91	=91	=91	=91	=91	=91	=91	=91
[1A	4AA\	(8ee\L 8ggn	>	8A\	-cie-	.	1r	.	.	1r	.	.
.	.	8ff#X\ 8aa	.	8A\	-nia	.	.	.	.	.	.	.
.	4r	8ee\ 8gg	.	8A\	pę-	.	.	.	.	.	.	.
.	.	8dd\J 8ff#	.	8A\	-kną	.	.	.	.	.	.	.
.	2r	8cc#X\L 8ee	.	2A\	bra-	.	.	.	.	.	.	.
.	.	8dd\ 8ff#	.	.	.	.	.	.	.	.	.	.
.	.	8cc#\ 8ee	.	.	.	.	.	.	.	.	.	.
.	.	8b\J) 8dd	]]	.	.	.	.	.	.	.	.	.
*v	*v	*	*	*	*	*	*	*	*	*	*	*
=92	=92	=92	=92	=92	=92	=92	=92	=92	=92	=92	=92
1A_	(8a\L 8cc#X	.	2AA/	-my	.	1r	.	.	1r	.	.
.	8b\ 8dd	.	.	.	.	.	.	.	.	.	.
.	8a\ 8cc#	.	.	.	.	.	.	.	.	.	.
.	8g\J 8b	.	.	.	.	.	.	.	.	.	.
.	8f#X/L 8a	.	2r	.	.	.	.	.	.	.	.
.	8g/ 8b	.	.	.	.	.	.	.	.	.	.
.	8f#/ 8a	.	.	.	.	.	.	.	.	.	.
.	8fn/J) 8g#X	.	.	.	.	.	.	.	.	.	.
=93	=93	=93	=93	=93	=93	=93	=93	=93	=93	=93	=93
*	*^	*	*	*	*	*	*	*	*	*	*
2A\]	1e 1g	2r	.	1r	.	.	1r	.	.	1r	.	.
2B-X^\	.	4r	.	.	.	.	.	.	.	.	.	.
.	.	((4d/	.	.	.	.	.	.	.	.	.	.
*	*v	*v	*	*	*	*	*	*	*	*	*	*
=94	=94	=94	=94	=94	=94	=94	=94	=94	=94	=94	=94
1A;	1c#X;)) 1e 1g	.	1r;	.	.	1r	.	.	1r	.	.
!LO:LB:g=original	!LO:LB:g=original	!	!	!LO:LB:g=original	!	!	!LO:LB:g=original	!	!	!LO:LB:g=original	!
=95||	=95||	=95||	=95||	=95||	=95||	=95||	=95||	=95||	=95||	=95||	=95||
*k[f#c#]	*k[f#c#]	*	*k[f#c#]	*	*	*k[f#c#]	*	*	*k[f#c#]	*	*
!	!	!	!	!	!	!	!	!	!LO:TX:a:t=Vivace D.ALONZO	!	!
4DD/ 4D	4A/ 4d 4f#	p	1r	.	.	1r	.	.	1r	.	.
4DD/ 4D	4A/ 4d 4f#	.	.	.	.	.	.	.	.	.	.
4DD/ 4D	4A/ 4d 4f#	.	.	.	.	.	.	.	.	.	.
4DD/ 4D	4A/ 4d 4f#	.	.	.	.	.	.	.	.	.	.
=96	=96	=96	=96	=96	=96	=96	=96	=96	=96	=96	=96
4DD/ 4D	4A/ 4d 4f#	.	2r	.	.	1r	.	.	1r	.	.
4DD/ 4D	4A/ 4d 4f#	.	.	.	.	.	.	.	.	.	.
4DD/ 4D	4A/ 4d 4f#	.	4r	.	.	.	.	.	.	.	.
!	!	!	!	!	!LO:DY:a	!	!	!	!	!	!
4DD/ 4D	4A/ 4d 4f#	.	(8D\L	Bież	<	.	.	.	.	.	.
.	.	.	8E\J)	.	.	.	.	.	.	.	.
=97	=97	=97	=97	=97	=97	=97	=97	=97	=97	=97	=97
4DD/ 4D	4A/ 4d 4f#	.	2F#\	więc	.	1r	.	.	1r	.	.
4DD/ 4D	4A/ 4d 4f#	.	.	.	.	.	.	.	.	.	.
4DD/ 4D	4A/ 4d 4f#	.	4r	.	[	.	.	.	.	.	.
!	!	!	!	!	!LO:DY:a	!	!	!	!	!	!
4DD/ 4D	4A/ 4d 4f#	.	(8F#\L	bież	<	.	.	.	.	.	.
.	.	.	8G\J)	.	.	.	.	.	.	.	.
=98	=98	=98	=98	=98	=98	=98	=98	=98	=98	=98	=98
4DD/ 4D	4A/ 4d 4f#	.	2A\	więc	.	1r	.	.	1r	.	.
4DD/ 4D	4A/ 4d 4f#	.	.	.	.	.	.	.	.	.	.
4DD/ 4D	4A/ 4d 4f#	.	4r	.	[	.	.	.	.	.	.
!	!	!	!	!	!LO:DY:a	!	!	!	!	!	!
4DD/ 4D	4A/ 4d 4f#	.	8B\	gdzie	<	.	.	.	.	.	.
.	.	.	8c#\	cię	[[	.	.	.	.	.	.
=99	=99	=99	=99	=99	=99	=99	=99	=99	=99	=99	=99
4DD/ 4D	4A/ 4d 4f#	.	4d^^\	mi-	.	1r	.	.	1r	.	.
4DD/ 4D	4A/ 4d 4f#	.	4F#\	-łość	.	.	.	.	.	.	.
4DD#X/ 4D#X	4B/ 4f# 4b	.	(4B\	wzy-	.	.	.	.	.	.	.
4DD#/ 4D#	4B/ 4f# 4a	.	4A\)	.	.	.	.	.	.	.	.
=100	=100	=100	=100	=100	=100	=100	=100	=100	=100	=100	=100
4EE/ 4E	4B/ 4e 4g	.	2G\	-wa	.	1r	.	.	1r	.	.
4EE/ 4E	4B/ 4e 4g	.	.	.	.	.	.	.	.	.	.
4EE/ 4E	4B/ 4e 4g	.	4r	.	.	.	.	.	.	.	.
!	!	!	!	!	!LO:DY:a	!	!	!	!	!	!
4EE/ 4E	4B/ 4e 4g	.	8G\	gdzie	<	.	.	.	.	.	.
.	.	.	8A\	ci	[[	.	.	.	.	.	.
=101	=101	=101	=101	=101	=101	=101	=101	=101	=101	=101	=101
4EE/ 4E	4B/ 4e 4g	.	4.B\	ser-	.	1r	.	.	1r	.	.
!	!	!	!	!	!	!LO:LB:g=original	!	!	!LO:LB:g=original	!	!
4EE/ 4E	4B/ 4e 4g	.	.	.	.	.	.	.	.	.	.
.	.	.	8B\	-ce	.	.	.	.	.	.	.
4EE/ 4E	4B/ 4e 4g	.	4B\	ka-	.	.	.	.	.	.	.
4DD/ 4D	4B-X/ 4e 4g	.	4B-X\	-że	.	.	.	.	.	.	.
!LO:LB:g=original	!LO:LB:g=original	!	!	!LO:LB:g=original	!	!	!	!	!	!	!
=102	=102	=102	=102	=102	=102	=102	=102	=102	=102	=102	=102
4CC#X/ 4C#X	4A/ 4e 4g	.	2A\	biedz	.	1r	.	.	1r	.	.
4CC#/ 4C#	4A/ 4e 4g	.	.	.	.	.	.	.	.	.	.
4CC#/ 4C#	4A/ 4e 4g	.	4r	.	.	.	.	.	.	.	.
4CC#/ 4C#	4A/ 4e 4g	.	8A\	gdzie	.	.	.	.	.	.	.
.	.	.	8A\	ci	.	.	.	.	.	.	.
=103	=103	=103	=103	=103	=103	=103	=103	=103	=103	=103	=103
4CC#X/ 4C#X	4A/ 4e 4g	.	(8B\L	ser-	.	1r	.	.	1r	.	.
.	.	.	8A\J)	.	.	.	.	.	.	.	.
!	!	!	!	!	!LO:DY:a	!	!	!	!	!	!
4CC#/ 4C#	4A/ 4e 4g	.	(8B\L	-ce	>	.	.	.	.	.	.
.	.	.	8A\J)	.	.	.	.	.	.	.	.
4CC#/ 4C#	4A/ 4e 4g	.	(8B\L	ka-	.	.	.	.	.	.	.
.	.	.	8A\J)	.	.	.	.	.	.	.	.
4CC#/ 4C#	4A/ 4e 4g	.	(8G\L	-że	.	.	.	.	.	.	.
.	.	.	8E\J)	.	]]	.	.	.	.	.	.
=104	=104	=104	=104	=104	=104	=104	=104	=104	=104	=104	=104
4DD/ 4D	4A/ 4d 4f#	.	2D\	biedz	.	1r	.	.	1r	.	.
4D\ 4F# 4A	4r	.	.	.	.	.	.	.	.	.	.
4D\ 4F# 4A	2r	f	4r	.	.	.	.	.	.	.	.
!	!	!	!	!	!LO:DY:a	!	!	!	!	!	!
4D\ 4F# 4A	.	.	8D\	gdzie	f	.	.	.	.	.	.
.	.	.	8E\	wre	.	.	.	.	.	.	.
=105	=105	=105	=105	=105	=105	=105	=105	=105	=105	=105	=105
4C#\ 4F# 4A	1r	.	(8F#\L	zem-	.	1r	.	.	1r	.	.
.	.	.	8G#X\J)	.	.	.	.	.	.	.	.
4C#\ 4F# 4A	.	.	4A\	-sta	.	.	.	.	.	.	.
4C#\ 4E#X 4B	.	.	(8G#\L	mor-	.	.	.	.	.	.	.
.	.	.	8A\J)	.	.	.	.	.	.	.	.
4C#\ 4E# 4B	.	.	4G#\	-du	.	.	.	.	.	.	.
=106	=106	=106	=106	=106	=106	=106	=106	=106	=106	=106	=106
4F#\ 4A	1r	.	2F#\	chci-	.	1r	.	.	1r	.	.
4F#\ 4A	.	.	.	.	.	.	.	.	.	.	.
4F#\ 4A	.	.	4C#/	-wa	.	.	.	.	.	.	.
!	!	!	!	!	!LO:DY:a	!	!	!	!	!	!
4F#\ 4A	.	.	4C#/	ko-	p	.	.	.	.	.	.
=107	=107	=107	=107	=107	=107	=107	=107	=107	=107	=107	=107
4C#\ 4F# 4A	(8ff#\L	p	(8F#\L	-chan-	.	1r	.	.	1r	.	.
!	!	!	!	!	!	!	!LO:LB:g=original	!	!	!LO:LB:g=original	!
.	8gg#X\	.	8G#X\J)	.	.	.	.	.	.	.	.
4C#\ 4F# 4A	8aa\	.	8A\	-ka	.	.	.	.	.	.	.
.	8bb\J	.	8B\	i	.	.	.	.	.	.	.
4C#\ 4E#X 4B	4ccc#\	.	4c#\	oj-	.	.	.	.	.	.	.
4C#\ 4E# 4B	8gg#X\L	.	(8G#\L	-ca	.	.	.	.	.	.	.
.	8aa\J)	.	8A\J)	.	.	.	.	.	.	.	.
!LO:LB:g=original	!LO:LB:g=original	!	!LO:LB:g=original	!	!	!	!	!	!	!	!
=108	=108	=108	=108	=108	=108	=108	=108	=108	=108	=108	=108
4F#\ 4A	4ff#\	.	2F#\	strzedz	.	1r	.	.	1r	.	.
4F#\ 4A	4r	.	.	.	.	.	.	.	.	.	.
4F#\ 4A	2r	.	4r	.	.	.	.	.	.	.	.
4F#\ 4A	.	.	8A\	Bież	.	.	.	.	.	.	.
.	.	.	8A\	więc	.	.	.	.	.	.	.
=109	=109	=109	=109	=109	=109	=109	=109	=109	=109	=109	=109
4E\ 4G 4A	1r	.	(8B^\L	gdzie	.	1r	.	.	1r	.	.
.	.	.	8A\J)	.	.	.	.	.	.	.	.
4AA\ 4E 4G 4A	.	.	(8B^\L	cię	.	.	.	.	.	.	.
.	.	.	8A\J)	.	.	.	.	.	.	.	.
4E\ 4G 4A	.	.	(8B^\L	mi-	.	.	.	.	.	.	.
.	.	.	8A\J)	.	.	.	.	.	.	.	.
4AA\ 4E 4G 4A	.	.	(8G^\L	-łość	.	.	.	.	.	.	.
.	.	.	8E\J)	.	.	.	.	.	.	.	.
=110	=110	=110	=110	=110	=110	=110	=110	=110	=110	=110	=110
4D\ 4F# 4A	(8bb\L	.	(4.D\	wzy-	.	1r	.	.	1r	.	.
.	8aa\J)	.	.	.	.	.	.	.	.	.	.
4AA\ 4A	(8bb\L	.	.	.	.	.	.	.	.	.	.
.	8aa\J)	.	8F#\)	.	.	.	.	.	.	.	.
4D\ 4F# 4A	(8bb\L	.	4AA/	-wa	.	.	.	.	.	.	.
.	8aa\J)	.	.	.	.	.	.	.	.	.	.
4AA\ 4A	(8ff#\L	.	8A\	gdzie	.	.	.	.	.	.	.
.	8dd\J)	.	8A\	ci	.	.	.	.	.	.	.
=111	=111	=111	=111	=111	=111	=111	=111	=111	=111	=111	=111
4C#\ 4G 4A	4a/	.	(8B\L	ser-	.	1r	.	.	1r	.	.
.	.	.	8A\J)	.	.	.	.	.	.	.	.
4AA\ 4A	4r	.	(8c#\L	-ce	.	.	.	.	.	.	.
.	.	.	8B\J)	.	.	.	.	.	.	.	.
4C#\ 4G 4A	2r	.	(8A\L	ka-	.	.	.	.	.	.	.
.	.	.	8G\J)	.	.	.	.	.	.	.	.
4AA\ 4A	.	.	(8E\L	-że	.	.	.	.	.	.	.
.	.	.	8F#\J)	.	.	.	.	.	.	.	.
=112	=112	=112	=112	=112	=112	=112	=112	=112	=112	=112	=112
4D\ 4F# 4A	(4dd\	.	2D\	biedz	.	1r	.	.	1r	.	.
4D\ 4F# 4A	8ff#\L	.	.	.	.	.	.	.	.	.	.
.	8aa\J)	.	.	.	.	.	.	.	.	.	.
4D\ 4F# 4A	4ddd\	.	4r	.	.	.	.	.	.	.	.
4D\ 4F# 4A	4r	.	8A\	gdzie	.	.	.	.	.	.	.
.	.	.	8A\	wre	.	.	.	.	.	.	.
=113	=113	=113	=113	=113	=113	=113	=113	=113	=113	=113	=113
4D\	4A/ 4d 4f#	f	2d^\	zem-	.	1r	.	.	1r	.	.
!	!	!	!	!	!	!LO:LB:g=original	!	!	!LO:LB:g=original	!	!
4F#\	4A/ 4d 4f#	.	.	.	.	.	.	.	.	.	.
4A\	4c#/ 4e	.	2c#^\	-sta	.	.	.	.	.	.	.
4AA/	4c#/ 4e	.	.	.	.	.	.	.	.	.	.
!LO:LB:g=original	!LO:LB:g=original	!	!LO:LB:g=original	!	!	!	!	!	!	!	!
=114	=114	=114	=114	=114	=114	=114	=114	=114	=114	=114	=114
4Cn\	4G</ 4cn 4e	.	2cn^\	mor-	.	1r	.	.	1r	.	.
4E\	4G</ 4c 4e	.	.	.	.	.	.	.	.	.	.
4G\	4B</ 4d	.	2B^\	-du	.	.	.	.	.	.	.
4GG\	4B</ 4d	.	.	.	.	.	.	.	.	.	.
=115	=115	=115	=115	=115	=115	=115	=115	=115	=115	=115	=115
!	!	!	!	!	!LO:DY:a	!	!	!	!	!	!
4GG\	4G</ 4B-X< 4e-X	f >	1B-X^	chci-	>]	1r	.	.	1r	.	.
4GG\	4G</ 4B-< 4e-	.	.	.	.	.	.	.	.	.	.
4GG\	4G</ 4B-< 4e-	.	.	.	.	.	.	.	.	.	.
4GG\	4G</ 4B-< 4e-	]]	.	.	.	.	.	.	.	.	.
=116	=116	=116	=116	=116	=116	=116	=116	=116	=116	=116	=116
!	!	!	!	!	!LO:DY:a	!	!	!	!	!	!
4AA\	4F#</ 4A< 4d	.	2A\	-wa	p	1r	.	.	1r	.	.
4AA/ 4D 4F#	(8dd\L	.	.	.	.	.	.	.	.	.	.
.	8ee\J	.	.	.	.	.	.	.	.	.	.
4AA/ 4D 4F#	4ff#\	.	4r	.	.	.	.	.	.	.	.
!	!	!	!	!	!LO:DY:a	!	!	!	!	!	!
4AA/ 4C# 4G	4ee\)	.	4A\	ko-	p	.	.	.	.	.	.
=117	=117	=117	=117	=117	=117	=117	=117	=117	=117	=117	=117
4D\ 4F#	4dd\	pp	2d\	-chan-	.	1r	.	.	1r	.	.
4F#\	4A</ 4d 4f#	.	.	.	.	.	.	.	.	.	.
4A\	4c#/ 4e	.	4c#X\	-ka	.	.	.	.	.	.	.
4AA/	4c#/ 4e	.	4c#\	i	.	.	.	.	.	.	.
=118	=118	=118	=118	=118	=118	=118	=118	=118	=118	=118	=118
4Cn\	4G</ 4cn 4e	.	2cn\	oj-	.	1r	.	.	1r	.	.
4E\	4G</ 4c 4e	.	.	.	.	.	.	.	.	.	.
4G\	4B</ 4d	.	2B\	-ca	.	.	.	.	.	.	.
4GG\	4B</ 4d	.	.	.	.	.	.	.	.	.	.
=119	=119	=119	=119	=119	=119	=119	=119	=119	=119	=119	=119
!	!	!	!	!	!LO:DY:a	!	!	!	!	!	!
4GG\	4G</ 4B-X< 4e-X	<	(1B-X	strzedz	<[	1r	.	.	1r	.	.
4GG\	4G</ 4B-< 4e-	.	.	.	.	.	.	.	.	.	.
4GG\	4G</ 4B-< 4e-	.	.	.	.	.	.	.	.	.	.
4GG\	4G</ 4B-< 4e-	[[	.	.	.	.	.	.	.	.	.
=120	=120	=120	=120	=120	=120	=120	=120	=120	=120	=120	=120
4GG#X\	4Fn</ 4Bn< 4d	>	2Bn^\)	.	.	1r	.	.	1r	.	.
4GG#\	4F</ 4B< 4d	.	.	.	.	.	.	.	.	.	.
4GG#\	4F</ 4B< 4d	.	4r	.	.	.	.	.	.	.	.
4GG#\	4F</ 4B< 4d	]]	4B\	ko-	.	.	.	.	.	.	.
=121	=121	=121	=121	=121	=121	=121	=121	=121	=121	=121	=121
4AA\	4F#X</ 4A< 4d	p	2.A\	-chan-	.	1r	.	.	1r	.	.
!	!	!	!	!	!	!	!LO:LB:g=original	!	!	!LO:LB:g=original	!
4AA\	4F#</ 4A< 4d	.	.	.	.	.	.	.	.	.	.
4AA\	4F#</ 4A< 4d	.	.	.	.	.	.	.	.	.	.
4AA\	4F#</ 4A< 4d	.	8D\	-ka	.	.	.	.	.	.	.
.	.	.	8D\	i	.	.	.	.	.	.	.
!LO:LB:g=original	!LO:LB:g=original	!	!LO:LB:g=original	!	!	!	!	!	!	!	!
=122	=122	=122	=122	=122	=122	=122	=122	=122	=122	=122	=122
!	!	!	!LO:TX:a:B:t=D.ALONZO.	!	!	!LO:TX:a:B:t=ROZALIA.	!	!	!LO:TX:a:B:t=D.MARJA.	!	!
4AA\	4F#</ 4A< 4d	.	[2F#\	oj-	.	2r	.	.	1r	.	.
4AA\	4F#</ 4A< 4d	.	.	.	.	.	.	.	.	.	.
4AA\	4F#</ 4A< 4d	.	(8F#\L]	.	.	4r	.	.	.	.	.
.	.	.	8G\J)	.	.	.	.	.	.	.	.
4AA\	4G</ 4A< 4c#	.	(8E\L	-ca	.	4a/	Bież	.	.	.	.
.	.	.	8F#\J)	.	.	.	.	.	.	.	.
=123	=123	=123	=123	=123	=123	=123	=123	=123	=123	=123	=123
4D\ 4F#	4A</ 4d	.	4D\	strzedz	.	2d^>/	więc	.	2r	.	.
4D\ 4F# 4A	(8dd\L	.	4r	.	.	.	.	.	.	.	.
.	8ee\J	.	.	.	.	.	.	.	.	.	.
4D\ 4F# 4A	4ff#\)	.	2r	.	.	4r	.	.	4ff#\	Bie-	.
!	!	!	!	!	!	!	!	!LO:DY:a	!	!	!
4D\ 4F# 4A	4r	.	.	.	.	(8f#/L	nież	<	4dd\	-gnę	.
.	.	.	.	.	.	8g/J)	.	.	.	.	.
=124	=124	=124	=124	=124	=124	=124	=124	=124	=124	=124	=124
4D\ 4F# 4A	4r	.	4r	.	.	2a/	więc	.	2r	.	.
4D\ 4F# 4A	(8ff#\L	.	8F#\L	bież	.	.	.	.	.	.	.
.	8gg\J	.	8G\J	.	.	.	.	.	.	.	.
4D\ 4F# 4A	4aa\)	.	2A\	więc	.	4r	.	[	4dd\	bie-	.
!	!	!	!	!	!	!	!	!LO:DY:a	!	!	!
4D\ 4F# 4A	4r	.	.	.	.	8b\	gdzie	<	4a/	-gnę	.
.	.	.	.	.	.	8cc#\	cię	.	.	.	.
=125	=125	=125	=125	=125	=125	=125	=125	=125	=125	=125	=125
4D\ 4F# 4A	2r	.	2r	.	.	4dd\	mi-	.	2r	.	.
4D\ 4F# 4A	.	.	.	.	.	4f#/	-łość	[	.	.	.
!	!	!	!	!	!	!	!	!	!	!	!LO:DY:a
4D#X\ 4F# 4B	(2bb\	.	4D#X\	gdzie	.	(4b/	wzy-	.	4.b\	gdzie	<
4D#\ 4F# 4B	.	.	4D#\	cię	.	4a/)	.	.	.	.	.
.	.	.	.	.	.	.	.	.	8b\	mnie	.
=126	=126	=126	=126	=126	=126	=126	=126	=126	=126	=126	=126
4E\ 4G 4B	4ggg\	.	2E\	mi-	.	2g/	-wa	.	4gg\	mi-	.
4E\ 4G 4B	4eee\	.	.	.	.	.	.	.	4ee\	-łość	[
4E\ 4G 4B	4bb\)	.	2E\	-łość	.	4r	.	.	(4b\	wzy-	.
4E\ 4G 4B	4gg\	.	.	.	.	8g/	gdzie	.	4g/)	.	.
.	.	.	.	.	.	8a/	ci	.	.	.	.
!LO:LB:g=original	!LO:LB:g=original	!	!LO:LB:g=original	!	!	!LO:LB:g=original	!	!	!LO:LB:g=original	!	!
=127	=127	=127	=127	=127	=127	=127	=127	=127	=127	=127	=127
4E\ 4G 4B	4ee\	.	2.E\	wzy-	.	4.b\	ser-	.	2e/	-wa	.
4E\ 4G 4B	4r	.	.	.	.	.	.	.	.	.	.
.	.	.	.	.	.	8b\	-ce	.	.	.	.
4E\ 4G 4B	2r	.	.	.	.	4b\	ka-	.	4r	.	.
4D\ 4G 4B-X	.	.	4D\	.	.	4b-X\	-że	.	8ee\	gdzie	.
.	.	.	.	.	.	.	.	.	8ee\	mi	.
=128	=128	=128	=128	=128	=128	=128	=128	=128	=128	=128	=128
4C#\ 4E 4G 4A	1r	.	2C#/	-wa	.	2a/	biedz	.	(8ff#^\L	ser-	.
.	.	.	.	.	.	.	.	.	8ee\J)	.	.
4C#\ 4E 4G 4A	.	.	.	.	.	.	.	.	(8ff#^\L	-ce	.
.	.	.	.	.	.	.	.	.	8ee\J)	.	.
4C#\ 4E 4G 4A	.	.	4C#/	gdzie	.	4r	.	.	(8ff#^\L	ka-	.
.	.	.	.	.	.	.	.	.	8ee\J)	.	.
4C#\ 4E 4G 4A	.	.	4C#/	ci	.	8a/	gdzie	.	(8ff#^\L	-że	.
.	.	.	.	.	.	8a/	ci	.	8ee\J)	.	.
=129	=129	=129	=129	=129	=129	=129	=129	=129	=129	=129	=129
4C#\ 4E 4G 4A	(8bb\L	.	4C#/	ser-	.	(8b^>/L	ser-	.	2aa^\	biedz	.
.	8aa\J)	.	.	.	.	8a/J)	.	.	.	.	.
4C#\ 4E 4G 4A	(8bb\L	.	4C#/	-ce	.	(8b^>/L	-ce	.	.	.	.
.	8aa\J)	.	.	.	.	8a/J)	.	.	.	.	.
4C#\ 4E 4G 4A	(8bb\L	.	4C#/	ka-	.	(8b^>/L	ka-	.	2r	.	.
.	8aa\J)	.	.	.	.	8a/J)	.	.	.	.	.
4C#\ 4E 4G 4A	(8gg\L	.	4C#/	-że	.	(8g^>/L	-że	.	.	.	.
.	8ee\J)	.	.	.	.	8e/J)	.	.	.	.	.
=130	=130	=130	=130	=130	=130	=130	=130	=130	=130	=130	=130
4D\ 4F# 4A	4dd\	.	2D\	biedz	.	2.d/	biedz	.	4.ff#^\	ka-	.
4D\ 4F# 4A	4r	.	.	.	.	.	.	.	.	.	.
.	.	.	.	.	.	.	.	.	8ee\	-że	.
4D\ 4F# 4A	2r	.	2r	.	.	.	.	.	4dd\	biedz	.
!	!	!	!	!	!	!	!	!LO:DY:a	!	!	!
4D\ 4F# 4A	.	.	.	.	.	8d/	gdzie	f	4r	.	.
.	.	.	.	.	.	8e/	wre	.	.	.	.
=131	=131	=131	=131	=131	=131	=131	=131	=131	=131	=131	=131
4C#\ 4F# 4A	1r	f	2r	.	.	(8f#/L	zem-	.	1r	.	.
!	!	!LO:PB:g=original	!	!	!	!	!	!	!	!LO:PB:g=original	!
.	.	.	.	.	.	8g#X/J)	.	.	.	.	.
4C#\ 4F# 4A	.	.	.	.	.	4a/	-sta	.	.	.	.
4C#\ 4E#X 4B	.	.	4C#/	gdzie	.	(8g#/L	mor-	.	.	.	.
.	.	.	.	.	.	8a/J)	.	.	.	.	.
4C#\ 4E# 4B	.	.	4C#/	wre	.	4g#/	-du	.	.	.	.
!LO:PB:g=original	!	!	!	!LO:PB:g=original	!	!	!LO:PB:g=original	!	!	!	!
=132	=132	=132	=132	=132	=132	=132	=132	=132	=132	=132	=132
!	!	!	!	!	!LO:DY:a	!	!	!	!	!	!LO:DY:a
4F#\ 4A	4fff#\	.	4F#\	zem-	<	2f#/	chci-	.	4ff#\	Gdzie	f
4F#\ 4A	(8aa\L	.	4F#\	-sta	.	.	.	.	(8a/L	wre	.
.	8bb\J	.	.	.	.	.	.	.	8b/J)	.	.
4F#\ 4A	4ccc#\)	.	4A\	mor-	.	4c#/	-wa	.	4cc#\	zem-	.
!	!	!	!	!	!	!	!	!LO:DY:a	!	!	!
4F#\ 4A	(8ff#\L	.	4F#\	-du	[[	4c#/	ko-	p	(8f#/L	-sta	.
.	8gg#X\J)	.	.	.	.	.	.	.	8g#X/J)	.	.
=133	=133	=133	=133	=133	=133	=133	=133	=133	=133	=133	=133
4C#\ 4F# 4A	2.aa\	p	(2c#\	chci-	.	(8f#/L	-chan-	.	2.a/	mor-	.
.	.	.	.	.	.	8g#X/J)	.	.	.	.	.
4C#\ 4F# 4A	.	.	.	.	.	(8a/L	-ka	.	.	.	.
.	.	.	.	.	.	8b/J)	.	.	.	.	.
4C#\ 4F# 4A	.	.	2C#/)	.	.	4cc#\	oj-	.	.	.	.
4C#\ 4G#X 4B	4ee#X\	.	.	.	.	(8g#/L	-ca	.	4e#X/	-du	.
.	.	.	.	.	.	8a/J)	.	.	.	.	.
=134	=134	=134	=134	=134	=134	=134	=134	=134	=134	=134	=134
4F#\ 4A	4ff#\	.	2F#\	-wa	.	2f#/	strzedz	.	(4f#/	chci-	.
4F#\ 4A 4c#	(8aa\L	.	.	.	.	.	.	.	8a\L	.	.
.	8ccc#\J	.	.	.	.	.	.	.	8cc#\J)	.	.
4F#\ 4A 4c#	4fff#\)	.	2r	.	.	4r	.	.	4ff#\	-wa	.
4F#\ 4A 4c#	4r	.	.	.	.	8a/	bież	.	4r	.	.
.	.	.	.	.	.	8a/	więc	.	.	.	.
=135	=135	=135	=135	=135	=135	=135	=135	=135	=135	=135	=135
4E\ 4G 4A	2r	.	2r	.	.	(8b/L	gdzie	.	2r	.	.
.	.	.	.	.	.	8a/J)	.	.	.	.	.
4AA\ 4A	.	.	.	.	.	(8b/L	cię	.	.	.	.
.	.	.	.	.	.	8a/J)	.	.	.	.	.
4C#\ 4G 4A	4r	.	4r	.	.	(8b/L	mi-	.	4r	.	.
.	.	.	.	.	.	8a/J)	.	.	.	.	.
4AA\ 4A	4aa\	.	4AA/	ko-	.	(8g/L	-łość	.	4a/	ko-	.
.	.	.	.	.	.	8e/J)	.	.	.	.	.
=136	=136	=136	=136	=136	=136	=136	=136	=136	=136	=136	=136
4D\ 4F# 4A	4fff#\	.	4D\	-chan-	.	(4.d/	wzy-	.	4ff#\	-chan-	.
4AA\ 4A	8ccc#\L	.	8A\	-ka	.	.	.	.	8cc#\	-ka	.
.	8ccc#\J	.	8A\	i	.	8f#/)	.	.	8cc#\	i	.
4D\ 4F# 4A	(8eee\L	.	4F#\	oj-	.	4A/	-wa	.	(8ee\L	oj-	.
.	8ddd\	.	.	.	.	.	.	.	8dd\J)	.	.
4AA\ 4A	8aa\	.	4D\	-ca	.	8a/	gdzie	.	(8a/L	-ca	.
.	8ff#\J)	.	.	.	.	8a/	ci	.	8f#/J)	.	.
!LO:LB:g=original	!LO:LB:g=original	!	!LO:LB:g=original	!	!	!LO:LB:g=original	!	!	!LO:LB:g=original	!	!
=137	=137	=137	=137	=137	=137	=137	=137	=137	=137	=137	=137
4C#\ 4G 4A	4ee\	.	(1A	strzedz	.	(8b/L	ser-	.	2e/	strzedz	.
.	.	.	.	.	.	8a/J)	.	.	.	.	.
4AA\ 4A	4r	.	.	.	.	(8b/L	-ce	.	.	.	.
.	.	.	.	.	.	8a/J)	.	.	.	.	.
4C#\ 4G 4A	2r	.	.	.	.	(8a/L	ka-	.	4r	.	.
.	.	.	.	.	.	8g/J)	.	.	.	.	.
4AA\ 4A	.	.	.	.	.	(8e/L	-że	.	4a/	i	.
.	.	.	.	.	.	8f#/J)	.	.	.	.	.
=138	=138	=138	=138	=138	=138	=138	=138	=138	=138	=138	=138
4D\ 4F# 4A	(4.aa\	.	4D\)	.	.	2d/	biedz	.	4.aa\	oj-	.
4D\ 4F# 4A	.	.	4r	.	.	.	.	.	.	.	.
.	8ff#\	.	.	.	.	.	.	.	8ff#\	-ca	.
4D\ 4F# 4A	4dd\)	.	2r	.	.	4r	.	.	4dd\	strzedz	.
4D\ 4F# 4A	4r	.	.	.	.	8a/	gdzie	.	4r	.	.
.	.	.	.	.	.	8a/	wre	.	.	.	.
=139	=139	=139	=139	=139	=139	=139	=139	=139	=139	=139	=139
4D\	4A/ 4d 4f#	f	4D\	gdzie	.	2dd^\	zem-	.	4r	.	.
4F#\	4A/ 4d 4f#	.	4F#\	wre	.	.	.	.	4dd\	ko-	.
4A\	4c#/ 4e	.	4A\	zem-	.	2cc#^\	-sta	.	4ee\	-chan-	.
4AA\	4c#/ 4e	.	4AA/	-sta	.	.	.	.	4ee\	-ka	.
=140	=140	=140	=140	=140	=140	=140	=140	=140	=140	=140	=140
!	!	!	!	!	!	!	!	!	!	!	!LO:DY:a
4Cn\	4G/ 4cn 4e	.	4Cn/	mor-	.	2ccn^\	mor-	.	4r	.	<
4E\	4G/ 4c 4e	.	4E\	-du	.	.	.	.	4ccn\	i	.
4G\	4B/ 4d	.	4G\	chci-	.	2b^\	-du	.	4dd\	oj-	.
4GG\	4B/ 4d	.	4GG/	-wa	.	.	.	.	4dd\	-ca	[[
=141	=141	=141	=141	=141	=141	=141	=141	=141	=141	=141	=141
!	!	!	!	!	!LO:DY:a	!	!	!LO:DY:a	!	!	!LO:DY:a
4GG\	4G/ 4B-X 4e-X	>	1G	chci-	>]	2.b-X\	chci-	>	(1ee-X	strzedz	>]
4GG\	4B-/ 4e- 4g	.	.	.	.	.	.	.	.	.	.
4GG\	4e-/ 4g 4b-X	.	.	.	.	.	.	.	.	.	.
4GG\	4g\ 4b- 4ee-X	]]	.	.	.	4g/	.	]]	.	.	.
=142	=142	=142	=142	=142	=142	=142	=142	=142	=142	=142	=142
4AA\	4f#/ 4a 4dd	p	1A	.	.	4f#/	-wa	.	4dd\)	.	.
4AA\	4A/ 4d 4f#	.	.	.	.	4r	.	.	4r	.	.
4AA\	4A/ 4d 4f#	.	.	.	.	4r	.	p	2r	.	.
4AA\	4A/ 4c# 4g	.	.	.	.	4a/	ko-	.	.	.	.
!LO:LB:g=original	!LO:LB:g=original	!	!	!LO:LB:g=original	!	!LO:LB:g=original	!	!	!LO:LB:g=original	!	!
=143	=143	=143	=143	=143	=143	=143	=143	=143	=143	=143	=143
4D\	4A/ 4d 4f#	.	4D\	-wa	.	2dd\	-chan-	.	4r	.	.
4F#\	4A/ 4d 4f#	pp	4F#\	ko-	.	.	.	.	4dd\	ko-	.
4A\	4c#/ 4e	.	2A\	-chan-	.	4cc#\	-ka	.	4cc#\	-chan-	.
4AA/	4c#/ 4e	.	.	.	.	4cc#\	i	.	4aa\	-ka	.
=144	=144	=144	=144	=144	=144	=144	=144	=144	=144	=144	=144
4Cn\	4G/ 4cn 4e	.	4Cn/	-ka	.	2ccn\	oj-	.	4r	.	.
4E\	4G/ 4c 4e	.	4E\	i	.	.	.	.	4ccn\	i	.
4G\	4B/ 4d	.	4G\	oj-	.	2b\	-ca	.	4b\	oj-	.
4GG\	4B/ 4d	.	4GG/	-ca	.	.	.	.	4gg\	-ca	.
=145	=145	=145	=145	=145	=145	=145	=145	=145	=145	=145	=145
!	!	!	!	!	!LO:DY:a	!	!	!LO:DY:a	!	!	!LO:DY:a
4GG\	4G/ 4B-X 4e-X	<	(1G	strzedz	<[	(1b-X	strzedz	<[	(1ee-X	strzedz	<[
4GG\	4G/ 4B- 4e-	.	.	.	.	.	.	.	.	.	.
4GG\	4G/ 4B- 4e-	.	.	.	.	.	.	.	.	.	.
4GG\	4G/ 4B- 4e-	[[	.	.	.	.	.	.	.	.	.
=146	=146	=146	=146	=146	=146	=146	=146	=146	=146	=146	=146
!	!	!	!	!	!LO:DY:a	!	!	!LO:DY:a	!	!	!LO:DY:a
4GG#X\	4Fn/ 4Bn 4d	>	1G#X)	.	>]	2bn\)	.	>	2.dd\)	.	>
4GG#\	4F/ 4B 4d	.	.	.	.	.	.	.	.	.	.
4GG#\	4F/ 4B 4d	.	.	.	.	4r	.	.	.	.	.
!	!	!	!	!	!	!	!	!LO:DY:a	!	!	!
4GG#\	4F/ 4B 4d	] p	.	.	.	4b\	ko-	] p	4dd\	i	]]
=147	=147	=147	=147	=147	=147	=147	=147	=147	=147	=147	=147
!	!	!	!	!	!	!	!	!	!	!	!LO:DY:a
4AA\	4F#X/ 4A 4d	.	1A	i	.	2.a/	-chan-	.	(1ff#X	oj-	>
4AA\	4F#/ 4A 4d	.	.	.	.	.	.	.	.	.	.
4AA\	4F#/ 4A 4d	.	.	.	.	.	.	.	.	.	.
4AA\	4F#/ 4A 4d	.	.	.	.	8d/	-ka	.	.	.	.
.	.	.	.	.	.	8e/	i	.	.	.	.
=148	=148	=148	=148	=148	=148	=148	=148	=148	=148	=148	=148
!	!	!	!	!	!LO:DY:a	!	!	!LO:DY:a	!	!	!
4AA\	4F#/ 4A 4d	.	2A\	oj-	>	(2f#/	oj-	>	2dd\)	.	.
4r	4r	.	.	.	.	.	.	.	.	.	.
4AA\	4G/ 4A 4c#	.	2AA/	-ca	]]	8f#/L	.	.	2cc#\	-ca	]]
.	.	.	.	.	.	8g/J)	.	.	.	.	.
4r	4r	.	.	.	.	8e/L	-ca	.	.	.	.
.	.	.	.	.	.	8f#/J	.	]]	.	.	.
!LO:LB:g=original	!LO:LB:g=original	!	!LO:LB:g=original	!	!	!LO:LB:g=original	!	!	!LO:LB:g=original	!	!
=149	=149	=149	=149	=149	=149	=149	=149	=149	=149	=149	=149
!	!LO:TX:a:t=Vno	!	!	!	!	!	!	!	!	!	!
4D\	(12d/L	p	2D\	strzedz	.	2d/	strzedz	.	4dd\	strzedz	.
!	!LO:TX:b:t=leggiero	!	!	!	!	!	!	!	!	!	!
.	12f#/	.	.	.	.	.	.	.	.	.	.
.	12a/J)	.	.	.	.	.	.	.	.	.	.
4F#\ 4A	4a'/	.	.	.	.	.	.	.	2ff#^\	bie-	.
*	*Xtuplet	*	*	*	*	*	*	*	*	*	*
4DD/	(12a/L	.	2r	.	.	2r	.	.	.	.	.
.	12f#/	.	.	.	.	.	.	.	.	.	.
.	12d/J)	.	.	.	.	.	.	.	.	.	.
4AA/ 4D 4F#	4A'/	.	.	.	.	.	.	.	4dd\	-gnę	.
=150	=150	=150	=150	=150	=150	=150	=150	=150	=150	=150	=150
4DD/	(12d/L	.	4D\	Bież	.	1r	.	.	4a/	gdzie	.
.	12f#/	.	.	.	.	.	.	.	.	.	.
.	12a/J)	.	.	.	.	.	.	.	.	.	.
4F#\ 4A	4a'/	.	4D\	więc	.	.	.	.	4f#/	mnie	.
4D#X\	(12f#/L	.	4D#X\	gdzie	.	.	.	.	4b\	mi-	.
.	12a/	.	.	.	.	.	.	.	.	.	.
.	12b/J)	.	.	.	.	.	.	.	.	.	.
4F#\ 4A 4B	4b'\	.	4D#\	cię	.	.	.	.	4a/	-łość	.
=151	=151	=151	=151	=151	=151	=151	=151	=151	=151	=151	=151
*	*tuplet	*	*	*	*	*	*	*	*	*	*
!	!LO:TUP:a	!	!	!	!	!	!	!	!	!	!
4E\	(12g\L	.	2E\	mi-	.	4r	.	.	4g/	wzy-	.
.	12b\	.	.	.	.	.	.	.	.	.	.
.	12ee\J)	.	.	.	.	.	.	.	.	.	.
4G\ 4B	4ee'\	.	.	.	.	2g/	Bież	.	4e/	-wa	.
!	!LO:TUP:a	!	!	!	!	!	!	!	!	!	!
4G\	(12b\L	.	2G\	-łość	.	.	.	.	2r	.	.
.	12ee\	.	.	.	.	.	.	.	.	.	.
.	12gg\J)	.	.	.	.	.	.	.	.	.	.
4B\ 4e	4gg'\	.	.	.	.	4e/	więc	.	.	.	.
=152	=152	=152	=152	=152	=152	=152	=152	=152	=152	=152	=152
*	*Xtuplet	*	*	*	*	*	*	*	*	*	*
4A\	(12gg\L	.	1A	wzy-	.	4c#/	gdzie	.	1r	.	.
.	12ff#\	.	.	.	.	.	.	.	.	.	.
.	12ee\J	.	.	.	.	.	.	.	.	.	.
4c#\ 4e	12dd\L	.	.	.	.	4a/	cię	.	.	.	.
.	12cc#\	.	.	.	.	.	.	.	.	.	.
.	12b\J)	.	.	.	.	.	.	.	.	.	.
4AA/	(12a/L	.	.	.	.	4g/	mi-	.	.	.	.
.	12b/	.	.	.	.	.	.	.	.	.	.
.	12a/J	.	.	.	.	.	.	.	.	.	.
4C#\ 4G	12g/L	.	.	.	.	4e/	-łość	.	.	.	.
.	12f#/	.	.	.	.	.	.	.	.	.	.
.	12e/J)	.	.	.	.	.	.	.	.	.	.
=153	=153	=153	=153	=153	=153	=153	=153	=153	=153	=153	=153
4D\	(12d/L	.	2D\	-wa	.	2d/	wzy-	.	4r	.	.
.	12f#/	.	.	.	.	.	.	.	.	.	.
.	12a/J)	.	.	.	.	.	.	.	.	.	.
4F#\ 4A	4a'/	.	.	.	.	.	.	.	2ff#\	gdzie	.
.	.	.	.	.	.	(16qqf#/LL	.	.	.	.	.
.	.	.	.	.	.	16qqe/JJ)	.	.	.	.	.
4DD/	(12a/L	.	2r	.	.	4d/	wa	.	.	.	.
.	12f#/	.	.	.	.	.	.	.	.	.	.
.	12d/J)	.	.	.	.	.	.	.	.	.	.
4AA/ 4D 4F#	4A'/	.	.	.	.	4r	.	.	4dd\	mi	.
!LO:LB:g=original	!LO:LB:g=original	!	!LO:LB:g=original	!	!	!	!LO:LB:g=original	!	!	!LO:LB:g=original	!
=154	=154	=154	=154	=154	=154	=154	=154	=154	=154	=154	=154
4D\	(12d/L	.	2r	.	.	1r	.	.	4a/	ser-	.
.	12f#/	.	.	.	.	.	.	.	.	.	.
.	12a/J)	.	.	.	.	.	.	.	.	.	.
4F#\ 4A	4a'/	.	.	.	.	.	.	.	4f#/	-ce	.
4D#X\	(12f#/L	.	4D#X\	gdzie	.	.	.	.	4b\	ka-	.
.	12a/	.	.	.	.	.	.	.	.	.	.
.	12b/J)	.	.	.	.	.	.	.	.	.	.
4F#\ 4A 4B	4b'\	.	4D#\	ci	.	.	.	.	4a/	-że	.
=155	=155	=155	=155	=155	=155	=155	=155	=155	=155	=155	=155
4E\	(12g\L	.	2E\	ser-	.	4r	.	.	4g/	biedz	.
.	12b\	.	.	.	.	.	.	.	.	.	.
.	12ee\J)	.	.	.	.	.	.	.	.	.	.
4G\ 4B	4gg'\	.	.	.	.	2g/	gdzie	.	4r	.	.
4G\	(12b\L	.	2G\	-ce	.	.	.	.	2r	.	.
.	12ee\	.	.	.	.	.	.	.	.	.	.
.	12gg\J)	.	.	.	.	.	.	.	.	.	.
4B\ 4e	4gg'\	.	.	.	.	4e/	ci	.	.	.	.
=156	=156	=156	=156	=156	=156	=156	=156	=156	=156	=156	=156
4A\	(12gg\L	.	2A\	ka-	.	4c#/	ser-	.	1r	.	.
.	12ff#\	.	.	.	.	.	.	.	.	.	.
.	12ee\J	.	.	.	.	.	.	.	.	.	.
4e\ 4g	12dd\L	.	.	.	.	4a/	-ce	.	.	.	.
.	12cc#\	.	.	.	.	.	.	.	.	.	.
.	12b\J)	.	.	.	.	.	.	.	.	.	.
4AA/	(12a/L	.	2AA/	-że	.	4g/	ka-	.	.	.	.
.	12b/	.	.	.	.	.	.	.	.	.	.
.	12a/J	.	.	.	.	.	.	.	.	.	.
4C#\ 4G	12g/L	.	.	.	.	4e/	-że	.	.	.	.
.	12f#/	.	.	.	.	.	.	.	.	.	.
.	12e/J)	.	.	.	.	.	.	.	.	.	.
=157	=157	=157	=157	=157	=157	=157	=157	=157	=157	=157	=157
4D\	(12d/L	.	4D\	biedz	.	4d/	biedz	.	1r	.	.
.	12f#/	.	.	.	.	.	.	.	.	.	.
.	12a/J	.	.	.	.	.	.	.	.	.	.
4F#\ 4A	4dd\)	.	4r	.	.	4r	.	.	.	.	.
4D\	(12f#/L	<	2r	.	.	2r	.	.	.	.	.
.	12a/	.	.	.	.	.	.	.	.	.	.
.	12dd/J	.	.	.	.	.	.	.	.	.	.
4F#\ 4A	4ff#\)	[[	.	.	.	.	.	.	.	.	.
=158	=158	=158	=158	=158	=158	=158	=158	=158	=158	=158	=158
4D\	(12b\L	.	2G^^\	gdzie	.	2.b^^\	gdzie	.	2.dd^^\	gdzie	.
.	12dd\	.	.	.	.	.	.	.	.	.	.
.	12gg\J	.	.	.	.	.	.	.	.	.	.
4G\ 4B	4bb\)	>	.	.	.	.	.	.	.	.	.
4D\	(12dd\L	.	2B\	ci	.	.	.	.	.	.	.
.	12gg\	.	.	.	.	.	.	.	.	.	.
.	12bb\J	.	.	.	.	.	.	.	.	.	.
4G\ 4B	4ddd\)	]]	.	.	.	4g/	ci	.	4b\	mi	.
!LO:LB:g=original	!LO:LB:g=original	!	!LO:LB:g=original	!	!	!LO:LB:g=original	!	!	!LO:LB:g=original	!	!
=159	=159	=159	=159	=159	=159	=159	=159	=159	=159	=159	=159
4D\	(12d/L	<	2d\	ser-	.	2f#/	ser-	.	2a/	ser-	.
.	12f#/	.	.	.	.	.	.	.	.	.	.
.	12a/J	.	.	.	.	.	.	.	.	.	.
4F#\ 4A	4dd\)	.	.	.	.	.	.	.	.	.	.
4D\	(12f#/L	.	2D\	-ce	.	2f#/	-ce	.	2a/	-ce	.
.	12a/	.	.	.	.	.	.	.	.	.	.
.	12dd/J	.	.	.	.	.	.	.	.	.	.
4F#\ 4A	4ff#\)	[[	.	.	.	.	.	.	.	.	.
=160	=160	=160	=160	=160	=160	=160	=160	=160	=160	=160	=160
4D\	(12b\L	.	2G^\	ka-	.	2.b^\	ka-	.	2.dd^\	ka-	.
.	12dd\	.	.	.	.	.	.	.	.	.	.
.	12gg\J	.	.	.	.	.	.	.	.	.	.
4G\ 4B	4bb\)	>	.	.	.	.	.	.	.	.	.
4D\	(12dd\L	.	2B\	-że	.	.	.	.	.	.	.
.	12gg\	.	.	.	.	.	.	.	.	.	.
.	12bb\J	.	.	.	.	.	.	.	.	.	.
4G\ 4B	4ddd\)	]]	.	.	.	4g/	-że	.	4b\	-że	.
=161	=161	=161	=161	=161	=161	=161	=161	=161	=161	=161	=161
4D\	4aa\	.	4d\	biedz	.	4f#/	biedz	.	4a/	biedz	.
4F#\ 4A	2ff#^\ 2fff#	.	4r	.	.	4r	.	.	2ff#^\	Bie-	.
4Cn/	.	.	2r	.	.	2r	.	.	.	.	.
4F#\ 4A	4ee\ 4eee	.	.	.	.	.	.	.	4ee\	-gnę	.
=162	=162	=162	=162	=162	=162	=162	=162	=162	=162	=162	=162
4BB/	(4dd#X\ 4ddd#X	.	1r	.	.	1r	.	.	4dd#X\	gdzie	.
4F#\ 4A	4ccn\ 4cccn	.	.	.	.	.	.	.	4ccn\	mnie	.
4D#X\	4b\ 4bb	.	.	.	.	.	.	.	4b\	mi-	.
4F#\ 4A 4B	4a\ 4aa	.	.	.	.	.	.	.	4a/	-łość	.
=163	=163	=163	=163	=163	=163	=163	=163	=163	=163	=163	=163
*	*^	*	*	*	*	*	*	*	*	*	*
(4E\	4g\) 4gg	4ryy	.	4r	.	.	2r	.	.	(2g/	wzy-	.
4F#\	4r	4ryy	.	(4F#\	Bież	.	.	.	.	.	.	.
!	!	!	!	!	!	!	!	!	!LO:DY:a	!	!	!
4E\	[2e/ [2g	4B\	.	4E\)	.	.	[2gg\	gdzie	>	4b\	.	.
4D\	.	4B-X\	.	4D\	więc	.	.	.	.	4b-X\)	.	.
*	*v	*v	*	*	*	*	*	*	*	*	*	*
=164	=164	=164	=164	=164	=164	=164	=164	=164	=164	=164	=164
!	!	!	!	!	!	!	!	!	!	!	!LO:DY:a
4C#/	4A/ 4e] 4g]	.	4C#/	gdzie	.	2gg\]	.	.	1a	-wa	<[
!	!	!	!LO:TX:a:t=vel.	!	!	!	!	!	!LO:PB:g=original	!	!
4BB/	4r	.	4BB\ 4B	cię	.	.	.	.	.	.	.
!	!	!	!	!	!LO:DY:a	!	!	!LO:DY:a	!	!	!
4AA/	([2A/ 2c# [2a	.	4AA\ 4A	mi-	<	2cc#\	ci	] < [[	.	.	.
!	!	!	!	!	!	!	!LO:PB:g=original	!	!	!	!
4GG/)	.	.	4GG/ 4G	-łość	[[	.	.	.	.	.	.
!LO:PB:g=original	!LO:PB:g=original	!	!LO:PB:g=original	!	!	!	!	!	!	!	!
=165	=165	=165	=165	=165	=165	=165	=165	=165	=165	=165	=165
*Xtuplet	*	*	*	*	*	*	*	*	*	*	*
(12FF#/L	4A/]) 4d 4f# 4a]	.	2FF#/ 2F#	wzy-	.	(4dd\	gdzie	.	(4a/	gdzie	.
12AA/	.	.	.	.	.	.	.	.	.	.	.
12D/J	.	.	.	.	.	.	.	.	.	.	.
!	!	!	!	!	!	!	!	!LO:DY:a	!	!	!LO:DY:a
4F#\)	(4ff#\ 4aa	f	.	.	.	4ff#\)	.	f	4aa\)	.	f
!	!	!	!	!	!LO:DY:a	!	!	!	!	!	!
(12F#/L	4ee\ 4gg	.	2F#\	-wa	f	(4ee\	ci	.	(4gg\	mi	.
12D/	.	.	.	.	.	.	.	.	.	.	.
12AA/J	.	.	.	.	.	.	.	.	.	.	.
4FF#/)	4dd\) 4ff#	.	.	.	.	4dd\)	.	.	4ff#\)	.	.
=166	=166	=166	=166	=166	=166	=166	=166	=166	=166	=166	=166
!	!	!	!	!	!LO:DY:a	!	!	!LO:DY:a	!	!	!LO:DY:a
(12GG/L	4cc#\ 4ee	>	2G\	gdzie	>	(4cc#\	ser-	>	(4ee\	ser-	>
12BB/	.	.	.	.	.	.	.	.	.	.	.
12E/J	.	.	.	.	.	.	.	.	.	.	.
4G\)	4b\ 4dd	.	.	.	.	4b\)	.	.	4dd\)	.	.
(12G\L	4a\ 4cc#	.	2G\	ci	]]	(4a/	-ce	.	(4cc#\	-ce	.
12E\	.	.	.	.	.	.	.	.	.	.	.
12BB\J	.	.	.	.	.	.	.	.	.	.	.
4GG/)	4g/ 4b	]]	.	.	.	4g/)	.	]]	4b\)	.	]]
=167	=167	=167	=167	=167	=167	=167	=167	=167	=167	=167	=167
12AA/L	(4g/ 4b	<	2A\	ser-	.	(4g/	ser-	.	(4b\	ser-	.
12D/	.	.	.	.	.	.	.	.	.	.	.
12F#/J	.	.	.	.	.	.	.	.	.	.	.
4A\	4f#/ 4a	.	.	.	.	4f#/)	.	.	4a/)	.	.
*Xtremolo	*	*	*	*	*	*	*	*	*	*	*
12A\L	4f#/ 4dd	.	2A\	-ce	.	(4f#/	-ce	.	(4dd\	-ce	.
12AA\	.	.	.	.	.	.	.	.	.	.	.
12A\J	.	.	.	.	.	.	.	.	.	.	.
4AA/	4g\) 4ee	[[	.	.	.	4g/)	.	.	4ee\)	.	.
=168	=168	=168	=168	=168	=168	=168	=168	=168	=168	=168	=168
!	!	!	!	!	!LO:DY:a	!	!	!LO:DY:a	!	!	!LO:DY:a
12AA\L	(2.a\ 2.ff#	>	2A\	ka-	>	2.a/	ka-	>	2.ff#\	ka-	>
12A\	.	.	.	.	.	.	.	.	.	.	.
12AA\J	.	.	.	.	.	.	.	.	.	.	.
4A\	.	.	.	.	.	.	.	.	.	.	.
12A\L	.	.	2AA/	-że	]]	.	.	.	.	.	.
12AA\	.	.	.	.	.	.	.	.	.	.	.
12A\J	.	.	.	.	.	.	.	.	.	.	.
4AA/	4g\) 4ee	]]	.	.	.	4g/	-że	]]	4ee\	-że	]]
=169	=169	=169	=169	=169	=169	=169	=169	=169	=169	=169	=169
4D\	4f#/ 4dd	.	4D\	biedz	.	4f#/	biedz	.	4dd\	biedz	.
4F#\ 4A	2ff#^<\ 2fff#	.	4r	.	.	2ff#^\	Bież	.	4r	.	.
4Cn/	.	.	2r	.	.	.	.	.	2r	.	.
4F#\ 4A	4ee\ 4eee	.	.	.	.	4ee\	więc	.	.	.	.
=170	=170	=170	=170	=170	=170	=170	=170	=170	=170	=170	=170
4BB/	4dd#X\ 4ddd#X	.	1r	.	.	4dd#X\	gdzie	.	1r	.	.
4F#\ 4A	4ccn\ 4cccn	.	.	.	.	4ccn\	ci	.	.	.	.
4D#X\	4b\ 4bb	.	.	.	.	4b\	mi-	.	.	.	.
4F#\ 4B	4a\ 4aa	.	.	.	.	4a/	-łość	.	.	.	.
!LO:LB:g=original	!LO:LB:g=original	!	!	!LO:LB:g=original	!	!LO:LB:g=original	!	!	!	!LO:LB:g=original	!
=171	=171	=171	=171	=171	=171	=171	=171	=171	=171	=171	=171
*	*^	*	*	*	*	*	*	*	*	*	*
4E\	4g\ 4gg	4ryy	.	4r	.	.	2g/	wzy-	.	2r	.	.
(4F#\	4r	4ryy	.	(4F#\	Bież	.	.	.	.	.	.	.
4E\	[2e/ [2g	4B\	.	4E\)	.	.	4b\	.	.	[2gg^^\	gdzie	.
4Dn\	.	4B-X\	.	4D\	więc	.	4a#X/	.	.	.	.	.
*	*v	*v	*	*	*	*	*	*	*	*	*	*
=172	=172	=172	=172	=172	=172	=172	=172	=172	=172	=172	=172
4C#/	4A/ 4e] 4g]	.	4C#/	gdzie	.	1a	-wa	.	2gg\]	.	.
4BB/	4r	.	4BB\ 4B	cię	.	.	.	.	.	.	.
4AA/	([>2A/ 2c# [2a	.	4AA\ 4A	mi-	.	.	.	.	2cc#\	mi	.
4GG/)	.	.	4GG\ 4G	-łość	.	.	.	.	.	.	.
=173	=173	=173	=173	=173	=173	=173	=173	=173	=173	=173	=173
(12FF#/L	4A/]) 4d 4f# 4a]	.	2FF#/ 2F#	wzy-	.	(4a/	gdzie	.	(4dd\	gdzie	.
12AA/	.	.	.	.	.	.	.	.	.	.	.
12D/J	.	.	.	.	.	.	.	.	.	.	.
!	!	!	!	!	!	!	!	!LO:DY:a	!	!	!LO:DY:a
4F#\)	(4ff#\ 4aa	.	.	.	.	4ff#\)	.	f	4aa\)	.	f
!	!	!	!	!	!LO:DY:a	!	!	!	!	!	!
(12F#/L	4ee\ 4gg	.	2F#\	-wa	f	(4ee\	ci	.	(4gg\	mi	.
12D/	.	.	.	.	.	.	.	.	.	.	.
12AA/J	.	.	.	.	.	.	.	.	.	.	.
4FF#/)	4dd\) 4ff#	.	.	.	.	4dd\)	.	.	4ff#\)	.	.
=174	=174	=174	=174	=174	=174	=174	=174	=174	=174	=174	=174
!	!	!	!	!	!LO:DY:a	!	!	!LO:DY:a	!	!	!LO:DY:a
(12GG/L	4cc#\ 4ee	.	2G\	gdzie	>	(4cc#\	ser-	>	(4ee\	ser-	>
12BB/	.	.	.	.	.	.	.	.	.	.	.
12E/J	.	.	.	.	.	.	.	.	.	.	.
4G\)	4b\ 4dd	.	.	.	.	4b\)	.	.	4dd\)	.	.
(12G\L	4a\ 4cc#	.	2G\	ci	]]	(4a/	-ce	.	(4cc#\	-ce	.
12E\	.	.	.	.	.	.	.	.	.	.	.
12BB\J	.	.	.	.	.	.	.	.	.	.	.
4GG/)	4g/ 4b	.	.	.	.	4g/)	.	]]	4b\)	.	]]
=175	=175	=175	=175	=175	=175	=175	=175	=175	=175	=175	=175
!	!	!	!	!	!LO:DY:a	!	!	!	!	!	!
12AA/L	(4g/ 4b	.	2A\	ser-	<	(4g/	ser-	.	(4b\	ser-	.
12D/	.	.	.	.	.	.	.	.	.	.	.
12F#/J	.	.	.	.	.	.	.	.	.	.	.
!	!	!	!	!	!	!	!	!LO:DY:a	!	!	!LO:DY:a
4A\	4f#/ 4a	.	.	.	.	4f#/)	.	<	4a/)	.	<
12A\L	4f#/ 4dd	.	2A\	-ce	[[	(4f#/	-ce	.	(4dd\	-ce	.
12AA\	.	.	.	.	.	.	.	.	.	.	.
12A\J	.	.	.	.	.	.	.	.	.	.	.
4AA/	4g\) 4ee	.	.	.	.	4g/)	.	[[	4ee\)	.	[[
=176	=176	=176	=176	=176	=176	=176	=176	=176	=176	=176	=176
!	!	!	!	!	!LO:DY:a	!	!	!LO:DY:a	!	!	!LO:DY:a
12AA\L	2.a\ 2.ff#	.	2A\	ka-	>	2.a/	ka-	>	2.ff#\	ka-	>
12A\	.	.	.	.	.	.	.	.	.	.	.
12AA\J	.	.	.	.	.	.	.	.	.	.	.
4A\	.	.	.	.	.	.	.	.	.	.	.
12A\L	.	.	2AA/	-że	]]	.	.	.	.	.	.
12AA\	.	.	.	.	.	.	.	.	.	.	.
12A\J	.	.	.	.	.	.	.	.	.	.	.
4AA/	4g\ 4ee	.	.	.	.	4g/	-że	]]	4ee\	-że	]]
!LO:LB:g=original	!LO:LB:g=original	!	!LO:LB:g=original	!	!	!LO:LB:g=original	!	!	!LO:LB:g=original	!	!
=177	=177	=177	=177	=177	=177	=177	=177	=177	=177	=177	=177
4D\	4f#/ 4dd	.	4D\	biedz	.	4f#/	biedz	.	4dd\	biedz	.
!	!	!LO:HP:t=molto - cres	!	!	!	!	!	!	!	!	!
4r	12dd\L	<	4r	.	.	4r	.	.	4r	.	.
.	12ddd\	.	.	.	.	.	.	.	.	.	.
.	12dd\J	.	.	.	.	.	.	.	.	.	.
!	!	!	!	!	!LO:HP:t=molto - cres	!	!	!LO:HP:t=molto - cres	!	!	!
2GG/ 2G	12ddd\L	.	(2F#\	gdzie	<	[2dd\	gdzie	<	(2dd\	gdzie	.
.	12dd\	.	.	.	.	.	.	.	.	.	.
.	12ddd\J	.	.	.	.	.	.	.	.	.	.
.	12dd\L	.	.	.	.	.	.	.	.	.	.
.	12ddd\	.	.	.	.	.	.	.	.	.	.
.	12dd\J	.	.	.	.	.	.	.	.	.	.
=178	=178	=178	=178	=178	=178	=178	=178	=178	=178	=178	=178
2GG/ 2G	12ddd\L	.	2G\)	.	.	2dd\]	.	.	2ee\)	.	.
.	12dd\	.	.	.	.	.	.	.	.	.	.
.	12ddd\J	.	.	.	.	.	.	.	.	.	.
.	12dd\L	.	.	.	.	.	.	.	.	.	.
.	12ddd\	.	.	.	.	.	.	.	.	.	.
.	12dd\J	.	.	.	.	.	.	.	.	.	.
2GG#X/ 2G#X	12ddd\L	.	2G#X\	wre	.	2dd\	wre	.	2ee#X\	wre	.
.	12dd\	.	.	.	.	.	.	.	.	.	.
.	12ddd\J	.	.	.	.	.	.	.	.	.	.
.	12dd\L	.	.	.	.	.	.	.	.	.	.
.	12ddd\	.	.	.	.	.	.	.	.	.	.
.	12dd\J	.	.	.	.	.	.	.	.	.	.
=179	=179	=179	=179	=179	=179	=179	=179	=179	=179	=179	=179
2AA\ 2A	12ddd\L	.	2A\	zem-	.	2dd\	zem-	.	2ff#\	zem-	.
.	12dd\	.	.	.	.	.	.	.	.	.	.
.	12ddd\J	.	.	.	.	.	.	.	.	.	.
.	12dd\L	.	.	.	.	.	.	.	.	.	.
.	12ddd\	.	.	.	.	.	.	.	.	.	.
.	12dd\J	.	.	.	.	.	.	.	.	.	.
2Cn\ 2cn	12ddd\L	.	2cn\	-sta	.	2dd\	-sta	.	2ff#\	-sta	.
.	12dd\	.	.	.	.	.	.	.	.	.	.
.	12ddd\J	.	.	.	.	.	.	.	.	.	.
.	12dd\L	.	.	.	.	.	.	.	.	.	.
.	12ddd\	.	.	.	.	.	.	.	.	.	.
.	12dd\J	.	.	.	.	.	.	.	.	.	.
=180	=180	=180	=180	=180	=180	=180	=180	=180	=180	=180	=180
2BB\ 2B	12ddd\L	.	2B\	mor-	.	2dd\	mor-	.	2gg\	mor-	.
.	12dd\	.	.	.	.	.	.	.	.	.	.
.	12ddd\J	.	.	.	.	.	.	.	.	.	.
.	12dd\L	.	.	.	.	.	.	.	.	.	.
.	12ddd\	.	.	.	.	.	.	.	.	.	.
.	12dd\J	.	.	.	.	.	.	.	.	.	.
2BB-X\ 2B-X	12ddd\L	.	2B-X\	-du	.	2dd\	-du	.	2gg#X\	-du	.
.	12dd\	.	.	.	.	.	.	.	.	.	.
.	12ddd\J	.	.	.	.	.	.	.	.	.	.
.	12dd\L	.	.	.	.	.	.	.	.	.	.
.	12ddd\	.	.	.	.	.	.	.	.	.	.
.	12dd\J	.	.	.	.	.	.	.	.	.	.
=181	=181	=181	=181	=181	=181	=181	=181	=181	=181	=181	=181
*	*8va	*	*	*	*	*	*	*	*	*	*
!	!	!	!	!	!	!	!	!LO:DY:a	!	!	!
*	*tuplet	*	*	*	*	*	*	*	*	*	*
!	!LO:TUP:a	!	!	!	!	!	!	!	!	!	!
2AA\ 2D 2F# 2A	(12ddd\L	f	(1A	chci-	.	(1ff#	chci-	f	[1aa	chci-	.
!	!	!	!	!LO:LB:g=original	!	!	!LO:LB:g=original	!	!	!LO:LB:g=original	!
.	12eIee\	.	.	.	.	.	.	.	.	.	.
.	12fff#\J)	.	.	.	.	.	.	.	.	.	.
*	*Xtuplet	*	*	*	*	*	*	*	*	*	*
.	4fff#\	.	.	.	.	.	.	.	.	.	.
4AA\ 4D 4F# 4A	12fff#\L	.	.	.	.	.	.	.	.	.	.
.	12eee\	.	.	.	.	.	.	.	.	.	.
.	12ddd\J	.	.	.	.	.	.	.	.	.	.
4AA\ 4D 4F# 4A	12ddd\L	.	.	.	.	.	.	.	.	.	.
.	12ccc#\	.	.	.	.	.	.	.	.	.	.
.	12bb\J	.	.	.	.	.	.	.	.	.	.
!LO:LB:g=original	!LO:LB:g=original	!LO:LB:g=original	!	!	!	!	!	!	!	!	!
*	*X8va	*	*	*	*	*	*	*	*	*	*
=182	=182	=182	=182	=182	=182	=182	=182	=182	=182	=182	=182
4AA\ 4C# 4E 4G	12aa\L	.	1AA)	.	.	1cc#)	.	.	1aa]	.	.
.	12bb\	.	.	.	.	.	.	.	.	.	.
.	12aa\J	.	.	.	.	.	.	.	.	.	.
4AA\ 4C# 4E 4G	12aa\L	.	.	.	.	.	.	.	.	.	.
.	12bb\	.	.	.	.	.	.	.	.	.	.
.	12aa\J	.	.	.	.	.	.	.	.	.	.
4AA\ 4C# 4E 4G	12aa\L	.	.	.	.	.	.	.	.	.	.
.	12bb\	.	.	.	.	.	.	.	.	.	.
.	12aa\J	.	.	.	.	.	.	.	.	.	.
4AA\ 4C# 4E 4G	12gg\L	.	.	.	.	.	.	.	.	.	.
.	12ff#\	.	.	.	.	.	.	.	.	.	.
.	12ee\J	.	.	.	.	.	.	.	.	.	.
=183	=183	=183	=183	=183	=183	=183	=183	=183	=183	=183	=183
4D\ 4F#	4d/	.	4D\	-wa	.	4dd\	-wa	.	4dd\	-wa	.
4r	12d/L	p	4r	.	.	4r	.	.	4r	.	.
.	12dd/	.	.	.	.	.	.	.	.	.	.
.	12d/J	.	.	.	.	.	.	.	.	.	.
2FF#/ 2F#	12dd/L	.	2F#\	ko-	.	2dd\	ko-	.	2dd\	ko-	p
.	12d/	.	.	.	.	.	.	.	.	.	.
.	12dd/J	.	.	.	.	.	.	.	.	.	.
.	12d/L	.	.	.	.	.	.	.	.	.	.
.	12dd/	.	.	.	.	.	.	.	.	.	.
.	12d/J	.	.	.	.	.	.	.	.	.	.
=184	=184	=184	=184	=184	=184	=184	=184	=184	=184	=184	=184
2GG/ 2G	12dd/L	.	(2G\	-chan-	.	[2dd\	-chan-	.	(2ee\	-chan-	.
.	12d/	.	.	.	.	.	.	.	.	.	.
.	12dd/J	.	.	.	.	.	.	.	.	.	.
!	!	!LO:HP:t=cres---	!	!	!	!	!	!	!	!	!
.	12d/L	<	.	.	.	.	.	.	.	.	.
.	12dd/	.	.	.	.	.	.	.	.	.	.
.	12d/J	.	.	.	.	.	.	.	.	.	.
!	!	!	!	!	!	!	!	!	!	!	!LO:HP:b:t=cres---
2GG#X/ 2G#X	12dd/L	.	2G#X\)	.	.	2dd\]	.	.	2ee#X\)	.	<
.	12d/	.	.	.	.	.	.	.	.	.	.
.	12dd/J	.	.	.	.	.	.	.	.	.	.
.	12d/L	.	.	.	.	.	.	.	.	.	.
.	12dd/	.	.	.	.	.	.	.	.	.	.
.	12d/J	.	.	.	.	.	.	.	.	.	.
=185	=185	=185	=185	=185	=185	=185	=185	=185	=185	=185	=185
2AA\ 2A	12dd/L	.	2A\	-ka	.	2dd\	-ka	.	2ff#\	-ka	.
.	12d/	.	.	.	.	.	.	.	.	.	.
.	12dd/J	.	.	.	.	.	.	.	.	.	.
.	12d/L	.	.	.	.	.	.	.	.	.	.
.	12dd/	.	.	.	.	.	.	.	.	.	.
.	12d/J	.	.	.	.	.	.	.	.	.	.
2Cn\ 2cn	12dd/L	.	2cn\	i	.	2dd\	i	.	2ff#\	i	.
.	12d/	.	.	.	.	.	.	.	.	.	.
.	12dd/J	.	.	.	.	.	.	.	.	.	.
.	12d/L	.	.	.	.	.	.	.	.	.	.
.	12dd/	.	.	.	.	.	.	.	.	.	.
.	12d/J	.	.	.	.	.	.	.	.	.	.
=186	=186	=186	=186	=186	=186	=186	=186	=186	=186	=186	=186
2BB\ 2B	12dd/L	.	2B\	oj-	.	2dd\	oj-	.	2gg\	oj-	.
.	12d/	.	.	.	.	.	.	.	.	.	.
.	12dd/J	.	.	.	.	.	.	.	.	.	.
.	12d/L	.	.	.	.	.	.	.	.	.	.
.	12dd/	.	.	.	.	.	.	.	.	.	.
.	12d/J	.	.	.	.	.	.	.	.	.	.
2BB-X\ 2B-X	12dd/L	.	2B-X\	-ca	.	2dd\	-ca	.	2gg#X\	-ca	.
.	12d/	.	.	.	.	.	.	.	.	.	.
.	12dd/J	.	.	.	.	.	.	.	.	.	.
.	12d/L	.	.	.	.	.	.	.	.	.	.
.	12dd/	.	.	.	.	.	.	.	.	.	.
.	12d/J	.	.	.	.	.	.	.	.	.	.
!LO:LB:g=original	!LO:LB:g=original	!	!	!LO:LB:g=original	!	!	!LO:LB:g=original	!	!	!LO:LB:g=original	!
=187	=187	=187	=187	=187	=187	=187	=187	=187	=187	=187	=187
*	*8va	*	*	*	*	*	*	*	*	*	*
2AA\ 2D 2F# 2A	(12ddd\L	ff	(1A	oj-	.	(1ff#	oj-	.	[1aa	oj-	ff
.	12eee\	.	.	.	.	.	.	.	.	.	.
.	12fff#\J)	.	.	.	.	.	.	.	.	.	.
.	4fff#\	.	.	.	.	.	.	.	.	.	.
4AA\ 4D 4F# 4A	(12fff#\L	.	.	.	.	.	.	.	.	.	.
.	12eee\	.	.	.	.	.	.	.	.	.	.
.	12ddd\J)	.	.	.	.	.	.	.	.	.	.
4AA\ 4D 4F# 4A	(12ddd\L	.	.	.	.	.	.	.	.	.	.
.	12ccc#\	.	.	.	.	.	.	.	.	.	.
.	12bb\J)	.	.	.	.	.	.	.	.	.	.
=188	=188	=188	=188	=188	=188	=188	=188	=188	=188	=188	=188
4AA\ 4C# 4E 4G	(12aa/L	.	1AA)	-ca	.	2ee\)	.	.	2aa\]	.	.
.	12bb/	.	.	.	.	.	.	.	.	.	.
.	12aa/J)	.	.	.	.	.	.	.	.	.	.
4AA\ 4C# 4E 4G	(12aa/L	.	.	.	.	.	.	.	.	.	.
.	12bb/	.	.	.	.	.	.	.	.	.	.
.	12aa/J)	.	.	.	.	.	.	.	.	.	.
4AA\ 4C# 4E 4G	(12aa/L	.	.	.	.	2g/	-ca	.	2cc#\	-ca	.
.	12bb/	.	.	.	.	.	.	.	.	.	.
.	12aa/J)	.	.	.	.	.	.	.	.	.	.
4AA\ 4C# 4E 4G	(12gg/L	.	.	.	.	.	.	.	.	.	.
.	12ff#/	.	.	.	.	.	.	.	.	.	.
.	12ee/J)	.	.	.	.	.	.	.	.	.	.
=189	=189	=189	=189	=189	=189	=189	=189	=189	=189	=189	=189
4D\ 4F# 4A	4dd/	.	4D\	strzedz	.	4f#/	strzedz	.	4dd\	strzedz	.
*	*X8va	*	*	*	*	*	*	*	*	*	*
2AA\ 2C# 2E 2A	(12aa^<\L	.	2.A^\	Bież	.	2.cc#^\	Bież	.	2.ee^\	Bie-	.
.	12bb\	.	.	.	.	.	.	.	.	.	.
.	12aa\J)	.	.	.	.	.	.	.	.	.	.
.	(12aa\L	.	.	.	.	.	.	.	.	.	.
.	12bb\	.	.	.	.	.	.	.	.	.	.
.	12aa\J)	.	.	.	.	.	.	.	.	.	.
4AA\ 4C# 4E 4A	(12gg\L	.	.	.	.	.	.	.	.	.	.
.	12ff#\	.	.	.	.	.	.	.	.	.	.
.	12ee\J)	.	.	.	.	.	.	.	.	.	.
=190	=190	=190	=190	=190	=190	=190	=190	=190	=190	=190	=190
4D\ 4F# 4A	4dd\	.	4D\	więc	.	4dd\	więc	.	4ff#\	-gnę	.
2AA\ 2C# 2E 2A	(12aa\L	.	2.A^\	gdzie	.	2.cc#^\	gdzie	.	2.ee^\	gdzie	.
.	12bb\	.	.	.	.	.	.	.	.	.	.
.	12aa\J)	.	.	.	.	.	.	.	.	.	.
.	(12aa\L	.	.	.	.	.	.	.	.	.	.
.	12bb\	.	.	.	.	.	.	.	.	.	.
.	12aa\J)	.	.	.	.	.	.	.	.	.	.
4AA\ 4C# 4E 4A	(12gg\L	.	.	.	.	.	.	.	.	.	.
.	12ff#\	.	.	.	.	.	.	.	.	.	.
.	12ee\J)	.	.	.	.	.	.	.	.	.	.
=191	=191	=191	=191	=191	=191	=191	=191	=191	=191	=191	=191
4D\ 4F# 4A	4dd\	.	4D\	cię	.	4dd\	cię	.	4ff#\	mnie	.
2AA\ 2C# 2E 2A	(12aa\L	.	2.A^\	mi-	.	2.cc#^\	mi-	.	2.ee^\	mi-	.
!	!	!	!	!LO:LB:g=original	!	!	!LO:LB:g=original	!	!	!LO:LB:g=original	!
.	12bb\	.	.	.	.	.	.	.	.	.	.
.	12aa\J)	.	.	.	.	.	.	.	.	.	.
.	(12aa\L	.	.	.	.	.	.	.	.	.	.
.	12bb\	.	.	.	.	.	.	.	.	.	.
.	12aa\J)	.	.	.	.	.	.	.	.	.	.
4AA\ 4C# 4E 4A	(12gg\L	.	.	.	.	.	.	.	.	.	.
.	12ff#\	.	.	.	.	.	.	.	.	.	.
.	12ee\J)	.	.	.	.	.	.	.	.	.	.
!LO:LB:g=original	!LO:LB:g=original	!	!	!	!	!	!	!	!	!	!
=192	=192	=192	=192	=192	=192	=192	=192	=192	=192	=192	=192
4D\ 4F# 4A	4dd\	.	4D\	-łość	.	4dd\	-łość	.	4ff#\	-łość	.
2AA\ 2C# 2E 2A	(12aa\L	.	2.A^\	wzy-	.	2.cc#^\	wzy-	.	2.aa^\	wzy-	.
.	12bb\	.	.	.	.	.	.	.	.	.	.
.	12aa\J)	.	.	.	.	.	.	.	.	.	.
.	(12aa\L	.	.	.	.	.	.	.	.	.	.
.	12bb\	.	.	.	.	.	.	.	.	.	.
.	12aa\J)	.	.	.	.	.	.	.	.	.	.
4AA\ 4C# 4E 4A	(12gg\L	.	.	.	.	.	.	.	.	.	.
.	12ff#\	.	.	.	.	.	.	.	.	.	.
.	12ee\J)	.	.	.	.	.	.	.	.	.	.
=193	=193	=193	=193	=193	=193	=193	=193	=193	=193	=193	=193
12D\L 12F#	4dd\	ff	4d\	-wa.	.	4dd\	-wa.	.	4dd\	-wa.	.
12AA\	.	.	.	.	.	.	.	.	.	.	.
12BB\J	.	.	.	.	.	.	.	.	.	.	.
12C#\L	12c#/L	.	4r	.	.	4r	.	.	4r	.	.
12D\	12d/	.	.	.	.	.	.	.	.	.	.
12E\J	12e/J	.	.	.	.	.	.	.	.	.	.
!	!	!	!	!	!	!LO:TX:a:t=(Odchodzą)	!	!	!	!	!
12F#\L	12f#/L	.	2r	.	.	2r	.	.	2r	.	.
12C#\	12c#/	.	.	.	.	.	.	.	.	.	.
12D\J	12d/J	.	.	.	.	.	.	.	.	.	.
12E\L	12e/L	.	.	.	.	.	.	.	.	.	.
12F#\	12f#/	.	.	.	.	.	.	.	.	.	.
12G\J	12g/J	.	.	.	.	.	.	.	.	.	.
=194	=194	=194	=194	=194	=194	=194	=194	=194	=194	=194	=194
12A\L	12a/L	.	1r	.	.	1r	.	.	1r	.	.
12F#\	12f#/	.	.	.	.	.	.	.	.	.	.
12G\J	12g/J	.	.	.	.	.	.	.	.	.	.
12A\L	12a\L	.	.	.	.	.	.	.	.	.	.
12B\	12b\	.	.	.	.	.	.	.	.	.	.
12c#\J	12cc#\J	.	.	.	.	.	.	.	.	.	.
12d\L	12dd\L	.	.	.	.	.	.	.	.	.	.
12A\	12a\	.	.	.	.	.	.	.	.	.	.
12B\J	12b\J	.	.	.	.	.	.	.	.	.	.
12c#\L	12cc#\L	.	.	.	.	.	.	.	.	.	.
12d\	12dd\	.	.	.	.	.	.	.	.	.	.
12e\J	12ee\J	.	.	.	.	.	.	.	.	.	.
=195	=195	=195	=195	=195	=195	=195	=195	=195	=195	=195	=195
4f#\	4ff#\	.	1r	.	.	1r	.	.	1r	.	.
4a\	4aa\	.	.	.	.	.	.	.	.	.	.
4f#\	4ff#\	.	.	.	.	.	.	.	.	.	.
4d\	4dd\	.	.	.	.	.	.	.	.	.	.
=196	=196	=196	=196	=196	=196	=196	=196	=196	=196	=196	=196
4A\	4a/	.	1r	.	.	1r	.	.	1r	.	.
4d\	4dd\	.	.	.	.	.	.	.	.	.	.
!LO:TX:b:t=Zmiana Dekoracyi.	!	!	!	!	!	!	!	!	!	!	!
4A\	4a/	.	.	.	.	.	.	.	.	.	.
4F#\	4f#/	.	.	.	.	.	.	.	.	.	.
=197	=197	=197	=197	=197	=197	=197	=197	=197	=197	=197	=197
4D\	4d/	.	1r	.	.	1r	.	.	1r	.	.
4r	4r	.	.	.	.	.	.	.	.	.	.
4D\ 4d	4dd\ 4ff# 4aa 4ddd	sf	.	.	.	.	.	.	.	.	.
4r	4r	.	.	.	.	.	.	.	.	.	.
=198	=198	=198	=198	=198	=198	=198	=198	=198	=198	=198	=198
2DD/ 2D	2d/	.	1r;	.	.	1r;	.	.	1r;	.	.
2r;	2r;	.	.	.	.	.	.	.	.	.	.
==	==	==	==	==	==	==	==	==	==	==	==
*-	*-	*-	*-	*-	*-	*-	*-	*-	*-	*-	*-
!!!RDF**kern: > = above
!!!RDF**kern: < = below
!!!system-decoration: s1,s2,s3[(s4,s5)]
!!!ENC: Berenika Jozajtis
!!!END: 2022-09-12
!!!ENC: Julita Ruszuk
!!!END: 2022-09-20
!!!YEC: Copyright 2022 Narodowy Instytut Fryderyka Chopina (https://polishscores.org)
!!!YEM: License CC-BY-4.0 (https://creativecommons.org/licenses/by/4.0)
